; generated by Slic3r Prusa Edition 1.41.0+win64 on 2018-10-24 at 13:31:04

; 

; external perimeters extrusion width = 0.45mm
; perimeters extrusion width = 0.45mm
; infill extrusion width = 0.45mm
; solid infill extrusion width = 0.45mm
; top infill extrusion width = 0.40mm
; first layer extrusion width = 0.42mm

M201 X9000 Y9000 Z500 E10000 ; sets maximum accelerations, mm/sec^2
M203 X500 Y500 Z12 E120 ; sets maximum feedrates, mm/sec
M204 P1500 R1500 T1500 ; sets acceleration (P, T) and retract acceleration (R), mm/sec^2
M205 X10.00 Y10.00 Z0.20 E2.50 ; sets the jerk limits, mm/sec
M205 S0 T0 ; sets the minimum extruding and travel feed rate, mm/sec
M107
M115 U3.3.1 ; tell printer latest fw version
M201 X1000 Y1000 Z1000 E9000 ; sets maximum accelerations, mm/sec^2
M203 X200 Y200 Z12 E120 ; sets maximum feedrates, mm/sec
M204 S1250 T1250 ; sets acceleration (S) and retract acceleration (T)
M205 X8 Y8 Z0.4 E1.5 ; sets the jerk limits, mm/sec
M205 S0 T0 ; sets the minimum extruding and travel feed rate, mm/sec
M83  ; extruder relative mode
M104 S235 ; set extruder temp
M140 S85 ; set bed temp
M190 S85 ; wait for bed temp
M109 S235 ; wait for extruder temp
G28 W ; home all without mesh bed level
G80 ; mesh bed leveling
G1 Y-3.0 F1000.0 ; go outside print area
G92 E0.0
G1 X60.0 E9.0  F1000.0 ; intro line
G1 X100.0 E12.5  F1000.0 ; intro line
G92 E0.0
M221 S95
M900 K45; Filament gcode
G21 ; set units to millimeters
G90 ; use absolute coordinates
M83 ; use relative distances for extrusion
;BEFORE_LAYER_CHANGE
G92 E0.0
;0.2


G1 E-1.00000 F2100.00000
G1 Z0.600 F6000.000
;AFTER_LAYER_CHANGE
;0.2
G1 X53.749 Y77.350
G1 Z0.200
G1 E1.00000 F2100.00000
M204 S1000
G1 F1200
G1 X54.145 Y76.878 E0.01932
G1 X54.571 Y76.558 E0.01669
G1 X58.032 Y74.885 E0.12054
G1 X111.523 Y63.878 E1.71231
G1 X171.104 Y63.298 E1.86821
G1 X188.625 Y63.298 E0.54935
G1 X190.067 Y63.445 E0.04545
G1 X191.243 Y63.793 E0.03845
G1 X192.535 Y64.456 E0.04552
G1 X193.666 Y65.366 E0.04552
G1 X194.465 Y66.301 E0.03856
G1 X195.186 Y67.557 E0.04541
G1 X195.641 Y68.940 E0.04563
G1 X195.801 Y70.133 E0.03777
G1 X195.809 Y82.538 E0.38892
G1 X195.721 Y83.616 E0.03392
G1 X195.466 Y84.685 E0.03446
G1 X195.050 Y85.702 E0.03445
G1 X194.625 Y86.439 E0.02668
G1 X193.965 Y87.295 E0.03388
G1 X193.189 Y88.036 E0.03365
G1 X192.495 Y88.541 E0.02691
G1 X191.547 Y89.053 E0.03377
G1 X190.530 Y89.417 E0.03388
G1 X189.705 Y89.593 E0.02645
G1 X188.631 Y89.675 E0.03377
G1 X171.100 Y89.675 E0.54969
G1 X131.072 Y89.012 E1.25520
G1 X57.063 Y87.078 E2.32131
G1 X56.171 Y86.838 E0.02897
G1 X55.714 Y86.589 E0.01631
G1 X55.345 Y86.268 E0.01532
G1 X53.029 Y83.398 E0.11564
G1 X52.777 Y82.900 E0.01749
G1 X52.617 Y82.234 E0.02150
G1 X52.633 Y81.531 E0.02202
G1 X53.379 Y78.154 E0.10844
G1 X53.724 Y77.404 E0.02589
; PURGING FINISHED
G1 F4800
G1 X54.145 Y76.878 E-0.28029
G1 X54.571 Y76.558 E-0.22123
G1 X55.543 Y76.089 E-0.44848
G1 E-0.05000 F2100.00000
G1 Z0.800 F6000.000
G1 X168.534 Y67.899
G1 Z0.200
G1 E1.00000 F2100.00000
G1 F1200
G1 X191.209 Y67.899 E0.71093
G1 X191.209 Y85.074 E0.53848
G1 X168.534 Y85.074 E0.71093
G1 X168.534 Y67.959 E0.53660
G1 X168.911 Y68.276 F6000.000
G1 F1200
G1 X190.831 Y68.276 E0.68729
G1 X190.831 Y84.696 E0.51484
G1 X168.911 Y84.696 E0.68729
G1 X168.911 Y68.336 E0.51296
G1 X168.790 Y67.895 F6000.000
G1 X168.157 Y67.975
G1 F1200
G1 X168.157 Y85.228 E0.54096
G1 X167.857 Y84.858 E0.01494
G1 X167.627 Y84.504 E0.01324
G1 X167.436 Y84.127 E0.01324
G1 X167.284 Y83.733 E0.01324
G1 X167.175 Y83.325 E0.01324
G1 X167.109 Y82.908 E0.01324
G1 X167.086 Y82.461 E0.01403
G1 X167.086 Y70.512 E0.37467
G1 X167.110 Y70.052 E0.01443
G1 X167.224 Y69.442 E0.01947
G1 X167.431 Y68.856 E0.01948
G1 X167.628 Y68.469 E0.01361
G1 X167.858 Y68.114 E0.01326
G1 X168.003 Y67.923 E0.00753
G1 X168.100 Y67.956 E0.00321
G1 X168.613 Y67.522 F6000.000
G1 F1200
G1 X168.562 Y67.366 E0.00515
G1 X169.094 Y66.998 E0.02029
G1 X169.480 Y66.801 E0.01360
G1 X169.875 Y66.649 E0.01325
G1 X170.284 Y66.540 E0.01327
G1 X170.910 Y66.457 E0.01982
G1 X188.833 Y66.457 E0.56197
G1 X189.460 Y66.540 E0.01983
G1 X189.880 Y66.653 E0.01364
G1 X190.251 Y66.795 E0.01245
G1 X190.639 Y66.992 E0.01364
G1 X190.993 Y67.222 E0.01324
G1 X191.363 Y67.522 E0.01494
G1 X168.673 Y67.522 E0.71145
G1 F4800
G1 X168.562 Y67.366 E-0.07962
G1 X169.094 Y66.998 E-0.26902
G1 X169.480 Y66.801 E-0.18027
G1 X169.875 Y66.649 E-0.17565
G1 X170.284 Y66.540 E-0.17584
G1 X170.450 Y66.518 E-0.06959
G1 E-0.05000 F2100.00000
G1 Z0.800 F6000.000
G1 X191.586 Y67.975
G1 Z0.200
G1 E1.00000 F2100.00000
G1 F1200
G1 X191.739 Y67.923 E0.00508
G1 X192.115 Y68.469 E0.02080
G1 X192.307 Y68.845 E0.01324
G1 X192.516 Y69.430 E0.01946
G1 X192.606 Y69.856 E0.01365
G1 X192.657 Y70.500 E0.02028
G1 X192.657 Y82.461 E0.37503
G1 X192.633 Y82.921 E0.01443
G1 X192.516 Y83.543 E0.01985
G1 X192.307 Y84.128 E0.01947
G1 X192.012 Y84.675 E0.01948
G1 X191.742 Y85.046 E0.01440
G1 X191.586 Y84.995 E0.00515
G1 X191.586 Y68.035 E0.53178
G1 F4800
G1 X191.739 Y67.923 E-0.07901
G1 X192.115 Y68.469 E-0.27578
G1 X192.307 Y68.845 E-0.17552
G1 X192.516 Y69.430 E-0.25792
G1 X192.597 Y69.811 E-0.16178
G1 E-0.05000 F2100.00000
G1 Z0.800 F6000.000
G1 X191.130 Y85.451
G1 Z0.200
G1 E1.00000 F2100.00000
G1 F1200
G1 X191.181 Y85.607 E0.00515
G1 X190.809 Y85.878 E0.01443
G1 X190.262 Y86.172 E0.01946
G1 X189.868 Y86.324 E0.01324
G1 X189.460 Y86.433 E0.01324
G1 X189.043 Y86.499 E0.01324
G1 X188.596 Y86.522 E0.01403
G1 X170.910 Y86.515 E0.55453
G1 X170.490 Y86.471 E0.01326
G1 X170.076 Y86.384 E0.01326
G1 X169.480 Y86.172 E0.01982
G1 X169.104 Y85.980 E0.01325
G1 X168.558 Y85.604 E0.02078
G1 X168.610 Y85.451 E0.00509
G1 X191.070 Y85.451 E0.70422
G1 X191.448 Y85.870 F6000.000
G1 F1200
G1 X191.018 Y86.191 E0.01682
G1 X190.834 Y86.304 E0.00676
G1 X190.416 Y86.517 E0.01472
G1 X189.985 Y86.683 E0.01448
G1 X189.539 Y86.802 E0.01448
G1 X189.083 Y86.874 E0.01448
G1 X188.606 Y86.899 E0.01496
G1 X170.891 Y86.893 E0.55546
G1 X170.431 Y86.844 E0.01449
G1 X169.765 Y86.685 E0.02149
G1 X169.327 Y86.517 E0.01470
G1 X168.915 Y86.307 E0.01449
G1 X168.532 Y86.059 E0.01433
G1 X168.350 Y85.920 E0.00716
G1 X167.847 Y85.445 E0.02169
G1 X167.552 Y85.080 E0.01472
G1 X167.300 Y84.693 E0.01448
G1 X167.091 Y84.281 E0.01448
G1 X166.925 Y83.850 E0.01448
G1 X166.806 Y83.404 E0.01448
G1 X166.733 Y82.948 E0.01448
G1 X166.709 Y82.471 E0.01496
G1 X166.709 Y70.502 E0.37529
G1 X166.734 Y70.018 E0.01520
G1 X166.860 Y69.344 E0.02147
G1 X167.001 Y68.909 E0.01433
G1 X167.301 Y68.280 E0.02185
G1 X167.549 Y67.897 E0.01433
G1 X168.002 Y67.367 E0.02185
G1 X168.345 Y67.057 E0.01449
G1 X168.909 Y66.669 E0.02149
G1 X169.327 Y66.456 E0.01470
G1 X169.758 Y66.290 E0.01449
G1 X170.424 Y66.129 E0.02149
G1 X170.891 Y66.080 E0.01470
G1 X188.848 Y66.080 E0.56303
G1 X189.539 Y66.171 E0.02185
G1 X189.992 Y66.292 E0.01472
G1 X190.409 Y66.452 E0.01400
G1 X190.827 Y66.665 E0.01472
G1 X191.215 Y66.917 E0.01448
G1 X191.574 Y67.208 E0.01448
G1 X192.051 Y67.709 E0.02171
G1 X192.442 Y68.280 E0.02171
G1 X192.652 Y68.692 E0.01448
G1 X192.882 Y69.337 E0.02147
G1 X192.979 Y69.796 E0.01473
G1 X193.034 Y70.495 E0.02197
G1 X193.034 Y82.471 E0.37551
G1 X193.009 Y82.955 E0.01520
G1 X192.981 Y83.169 E0.00676
G1 X192.820 Y83.843 E0.02171
G1 X192.652 Y84.281 E0.01473
G1 X192.445 Y84.689 E0.01433
G1 X192.050 Y85.263 E0.02185
G1 X191.741 Y85.606 E0.01448
G1 X191.493 Y85.830 E0.01049
G1 X191.745 Y86.110 F6000.000
G1 F1200
G1 X191.228 Y86.505 E0.02040
G1 X191.019 Y86.633 E0.00769
G1 X190.570 Y86.862 E0.01581
G1 X190.102 Y87.042 E0.01572
G1 X189.617 Y87.172 E0.01572
G1 X189.122 Y87.250 E0.01572
G1 X188.616 Y87.276 E0.01589
G1 X170.871 Y87.270 E0.55639
G1 X170.372 Y87.217 E0.01572
G1 X169.891 Y87.115 E0.01540
G1 X169.644 Y87.043 E0.00810
G1 X169.173 Y86.862 E0.01580
G1 X168.727 Y86.634 E0.01572
G1 X168.314 Y86.367 E0.01540
G1 X168.109 Y86.210 E0.00810
G1 X167.733 Y85.871 E0.01588
G1 X167.564 Y85.694 E0.00769
G1 X167.246 Y85.302 E0.01581
G1 X166.973 Y84.881 E0.01572
G1 X166.746 Y84.435 E0.01572
G1 X166.566 Y83.967 E0.01572
G1 X166.436 Y83.482 E0.01572
G1 X166.358 Y82.987 E0.01572
G1 X166.331 Y82.481 E0.01589
G1 X166.331 Y70.492 E0.37591
G1 X166.358 Y69.983 E0.01598
G1 X166.390 Y69.740 E0.00769
G1 X166.495 Y69.247 E0.01581
G1 X166.646 Y68.779 E0.01540
G1 X166.745 Y68.541 E0.00810
G1 X166.973 Y68.092 E0.01580
G1 X167.241 Y67.679 E0.01540
G1 X167.397 Y67.474 E0.00810
G1 X167.735 Y67.100 E0.01580
G1 X168.107 Y66.764 E0.01572
G1 X168.504 Y66.475 E0.01540
G1 X168.724 Y66.340 E0.00810
G1 X169.173 Y66.111 E0.01580
G1 X169.641 Y65.931 E0.01572
G1 X170.116 Y65.804 E0.01540
G1 X170.370 Y65.756 E0.00810
G1 X170.871 Y65.703 E0.01580
G1 X188.862 Y65.703 E0.56410
G1 X189.120 Y65.723 E0.00810
G1 X189.617 Y65.801 E0.01580
G1 X190.104 Y65.932 E0.01581
G1 X190.567 Y66.110 E0.01555
G1 X191.016 Y66.338 E0.01581
G1 X191.437 Y66.611 E0.01572
G1 X191.826 Y66.927 E0.01572
G1 X192.183 Y67.283 E0.01581
G1 X192.344 Y67.472 E0.00778
G1 X192.495 Y67.669 E0.00778
G1 X192.769 Y68.092 E0.01581
G1 X192.997 Y68.538 E0.01572
G1 X193.178 Y69.009 E0.01581
G1 X193.247 Y69.244 E0.00769
G1 X193.352 Y69.737 E0.01581
G1 X193.404 Y70.226 E0.01540
G1 X193.411 Y70.489 E0.00827
G1 X193.411 Y82.481 E0.37598
G1 X193.385 Y82.990 E0.01598
G1 X193.353 Y83.233 E0.00769
G1 X193.247 Y83.729 E0.01589
G1 X193.178 Y83.964 E0.00769
G1 X192.997 Y84.435 E0.01581
G1 X192.774 Y84.873 E0.01540
G1 X192.640 Y85.093 E0.00810
G1 X192.344 Y85.501 E0.01580
G1 X192.008 Y85.873 E0.01572
G1 X191.790 Y86.070 E0.00923
G1 X191.369 Y85.974 F6000.000
G1 F4800
G1 X191.228 Y86.505 E-0.29524
G1 X191.019 Y86.633 E-0.10194
G1 X190.570 Y86.862 E-0.20952
G1 X190.102 Y87.042 E-0.20837
G1 X189.788 Y87.126 E-0.13493
G1 E-0.05000 F2100.00000
G1 Z0.800 F6000.000
G1 X190.710 Y85.716
G1 Z0.200
G1 E1.00000 F2100.00000
G1 F1200
G1 X189.702 Y85.903 E0.03508
G1 X189.485 Y86.309 F6000.000
G1 F1200
G1 X188.909 Y85.733 E0.02612
G1 X188.364 Y85.733 E0.01751
G1 X188.856 Y86.226 E0.02233
G1 X188.589 Y86.239 E0.00857
G1 X188.324 Y86.239 E0.00851
G1 X187.818 Y85.733 E0.02296
G1 X187.272 Y85.733 E0.01751
G1 X187.778 Y86.239 E0.02295
G1 X187.232 Y86.239 E0.01752
G1 X186.726 Y85.733 E0.02294
G1 X186.181 Y85.733 E0.01751
G1 X186.686 Y86.239 E0.02293
G1 X186.140 Y86.239 E0.01752
G1 X185.635 Y85.733 E0.02292
G1 X185.089 Y85.733 E0.01751
G1 X185.594 Y86.238 E0.02291
G1 X185.048 Y86.238 E0.01752
G1 X184.543 Y85.733 E0.02290
G1 X183.998 Y85.733 E0.01751
G1 X184.502 Y86.238 E0.02289
G1 X183.956 Y86.238 E0.01752
G1 X183.452 Y85.733 E0.02289
G1 X182.906 Y85.733 E0.01751
G1 X183.410 Y86.237 E0.02288
G1 X182.864 Y86.237 E0.01752
G1 X182.360 Y85.733 E0.02287
G1 X181.815 Y85.733 E0.01751
G1 X182.318 Y86.237 E0.02286
G1 X181.772 Y86.237 E0.01752
G1 X181.269 Y85.733 E0.02285
G1 X180.723 Y85.733 E0.01751
G1 X181.226 Y86.237 E0.02284
G1 X180.680 Y86.236 E0.01752
G1 X180.177 Y85.733 E0.02283
G1 X179.632 Y85.733 E0.01751
G1 X180.134 Y86.236 E0.02282
G1 X179.589 Y86.236 E0.01752
G1 X179.086 Y85.733 E0.02281
G1 X178.540 Y85.733 E0.01751
G1 X179.043 Y86.236 E0.02280
G1 X178.497 Y86.236 E0.01752
G1 X177.994 Y85.733 E0.02279
G1 X177.449 Y85.733 E0.01751
G1 X177.951 Y86.235 E0.02278
G1 X177.405 Y86.235 E0.01752
G1 X176.903 Y85.733 E0.02277
G1 X176.357 Y85.733 E0.01751
G1 X176.859 Y86.235 E0.02276
G1 X176.313 Y86.235 E0.01752
G1 X175.811 Y85.733 E0.02275
G1 X175.266 Y85.733 E0.01751
G1 X175.767 Y86.235 E0.02274
G1 X175.221 Y86.234 E0.01752
G1 X174.720 Y85.733 E0.02273
G1 X174.174 Y85.733 E0.01751
G1 X174.675 Y86.234 E0.02272
G1 X174.129 Y86.234 E0.01752
G1 X173.628 Y85.733 E0.02271
G1 X173.083 Y85.733 E0.01751
G1 X173.583 Y86.234 E0.02270
G1 X173.037 Y86.233 E0.01752
G1 X172.537 Y85.733 E0.02269
G1 X171.991 Y85.733 E0.01751
G1 X172.491 Y86.233 E0.02268
G1 X171.945 Y86.233 E0.01752
G1 X171.445 Y85.733 E0.02267
G1 X170.900 Y85.733 E0.01751
G1 X171.399 Y86.233 E0.02267
G1 X170.925 Y86.233 E0.01520
G1 X170.845 Y86.224 E0.00260
G1 X170.223 Y85.602 E0.02822
G1 X170.052 Y85.905 F6000.000
G1 F1200
G1 X169.549 Y85.812 E0.01909
G1 X169.047 Y85.719 E0.01755
G1 X168.367 Y85.515 F6000.000
G1 F1200
G1 X168.388 Y85.389 E0.00084
G1 X168.409 Y85.262 E0.00115
G1 X167.889 Y84.561 F6000.000
G1 F1200
G1 X167.705 Y83.567 E0.03457
G1 F4800
G1 X167.889 Y84.561 E-0.42010
G1 E-0.57990 F2100.00000
G1 Z0.800 F6000.000
G1 X167.206 Y82.599
G1 Z0.200
G1 E1.00000 F2100.00000
G1 F1200
G1 X167.858 Y83.251 E0.02950
G1 X167.874 Y83.248 E0.00055
G1 X167.874 Y82.723 E0.01679
G1 X167.368 Y82.217 E0.02292
G1 X167.368 Y81.673 E0.01744
G1 X167.874 Y82.179 E0.02292
G1 X167.874 Y81.634 E0.01744
G1 X167.368 Y81.128 E0.02292
G1 X167.368 Y80.583 E0.01744
G1 X167.874 Y81.089 E0.02292
G1 X167.874 Y80.545 E0.01744
G1 X167.368 Y80.039 E0.02292
G1 X167.368 Y79.494 E0.01744
G1 X167.874 Y80.000 E0.02292
G1 X167.874 Y79.456 E0.01744
G1 X167.368 Y78.950 E0.02292
G1 X167.368 Y78.405 E0.01744
G1 X167.874 Y78.911 E0.02292
G1 X167.874 Y78.367 E0.01744
G1 X167.368 Y77.861 E0.02292
G1 X167.368 Y77.316 E0.01744
G1 X167.874 Y77.822 E0.02292
G1 X167.874 Y77.278 E0.01744
G1 X167.368 Y76.771 E0.02292
G1 X167.368 Y76.227 E0.01744
G1 X167.874 Y76.733 E0.02292
G1 X167.874 Y76.188 E0.01744
G1 X167.368 Y75.682 E0.02292
G1 X167.368 Y75.138 E0.01744
G1 X167.874 Y75.644 E0.02292
G1 X167.874 Y75.099 E0.01744
G1 X167.368 Y74.593 E0.02292
G1 X167.368 Y74.049 E0.01744
G1 X167.874 Y74.555 E0.02292
G1 X167.874 Y74.010 E0.01744
G1 X167.368 Y73.504 E0.02292
G1 X167.368 Y72.960 E0.01744
G1 X167.874 Y73.466 E0.02292
G1 X167.874 Y72.921 E0.01744
G1 X167.368 Y72.415 E0.02292
G1 X167.368 Y71.870 E0.01744
G1 X167.874 Y72.377 E0.02292
G1 X167.874 Y71.832 E0.01744
G1 X167.368 Y71.326 E0.02292
G1 X167.368 Y70.781 E0.01744
G1 X167.874 Y71.287 E0.02292
G1 X167.874 Y70.743 E0.01744
G1 X167.382 Y70.251 E0.02228
G1 X167.391 Y70.086 E0.00529
G1 X167.450 Y69.774 E0.01017
G1 X168.044 Y70.368 E0.02691
G1 F4800
G1 X167.450 Y69.774 E-0.34935
G1 X167.391 Y70.086 E-0.13203
G1 X167.382 Y70.251 E-0.06867
G1 X167.874 Y70.743 E-0.28922
G1 X167.874 Y71.009 E-0.11073
G1 E-0.05000 F2100.00000
G1 Z0.800 F6000.000
G1 X167.706 Y69.418
G1 Z0.200
G1 E1.00000 F2100.00000
G1 F1200
G1 X167.821 Y68.790 E0.02411
G1 X167.899 Y68.397 E0.01388
G1 F4800
G1 X167.821 Y68.790 E-0.16623
G1 E-0.83377 F2100.00000
G1 Z0.800 F6000.000
G1 X169.033 Y67.257
G1 Z0.200
G1 E1.00000 F2100.00000
G1 F1200
G1 X169.536 Y67.164 E0.01752
G1 X170.040 Y67.070 E0.01899
G1 X170.251 Y66.675 F6000.000
G1 F1200
G1 X170.816 Y67.240 E0.02511
G1 X171.350 Y67.240 E0.01680
G1 X170.858 Y66.747 E0.02188
G1 X171.385 Y66.740 E0.01658
G1 X171.885 Y67.240 E0.02219
G1 X172.419 Y67.240 E0.01680
G1 X171.920 Y66.740 E0.02219
G1 X172.454 Y66.740 E0.01680
G1 X172.954 Y67.240 E0.02219
G1 X173.488 Y67.240 E0.01680
G1 X172.989 Y66.740 E0.02219
G1 X173.523 Y66.740 E0.01680
G1 X174.023 Y67.240 E0.02219
G1 X174.557 Y67.240 E0.01680
G1 X174.058 Y66.740 E0.02219
G1 X174.592 Y66.740 E0.01680
G1 X175.092 Y67.240 E0.02219
G1 X175.626 Y67.240 E0.01680
G1 X175.127 Y66.740 E0.02219
G1 X175.661 Y66.740 E0.01680
G1 X176.161 Y67.240 E0.02219
G1 X176.695 Y67.240 E0.01680
G1 X176.196 Y66.740 E0.02219
G1 X176.731 Y66.740 E0.01680
G1 X177.230 Y67.240 E0.02220
G1 X177.764 Y67.240 E0.01680
G1 X177.265 Y66.740 E0.02220
G1 X177.800 Y66.740 E0.01680
G1 X178.299 Y67.240 E0.02220
G1 X178.833 Y67.240 E0.01680
G1 X178.334 Y66.740 E0.02220
G1 X178.869 Y66.740 E0.01680
G1 X179.368 Y67.240 E0.02220
G1 X179.903 Y67.240 E0.01680
G1 X179.403 Y66.740 E0.02220
G1 X179.938 Y66.740 E0.01680
G1 X180.437 Y67.240 E0.02220
G1 X180.972 Y67.240 E0.01680
G1 X180.472 Y66.740 E0.02220
G1 X181.007 Y66.740 E0.01680
G1 X181.506 Y67.240 E0.02220
G1 X182.041 Y67.240 E0.01680
G1 X181.541 Y66.740 E0.02220
G1 X182.076 Y66.740 E0.01680
G1 X182.575 Y67.240 E0.02220
G1 X183.110 Y67.240 E0.01680
G1 X182.610 Y66.740 E0.02220
G1 X183.145 Y66.740 E0.01680
G1 X183.644 Y67.240 E0.02220
G1 X184.179 Y67.240 E0.01680
G1 X183.679 Y66.740 E0.02220
G1 X184.214 Y66.740 E0.01680
G1 X184.713 Y67.240 E0.02220
G1 X185.248 Y67.240 E0.01680
G1 X184.748 Y66.740 E0.02220
G1 X185.283 Y66.740 E0.01680
G1 X185.782 Y67.240 E0.02220
