; generated by Slic3r Prusa Edition 1.41.0+win64 on 2018-10-19 at 09:41:01

; 

; external perimeters extrusion width = 0.45mm
; perimeters extrusion width = 0.45mm
; infill extrusion width = 0.45mm
; solid infill extrusion width = 0.45mm
; top infill extrusion width = 0.40mm
; first layer extrusion width = 0.42mm

M201 X9000 Y9000 Z500 E10000 ; sets maximum accelerations, mm/sec^2
M203 X500 Y500 Z12 E120 ; sets maximum feedrates, mm/sec
M204 P1500 R1500 T1500 ; sets acceleration (P, T) and retract acceleration (R), mm/sec^2
M205 X10.00 Y10.00 Z0.20 E2.50 ; sets the jerk limits, mm/sec
M205 S0 T0 ; sets the minimum extruding and travel feed rate, mm/sec
M107
M115 U3.3.1 ; tell printer latest fw version
M201 X1000 Y1000 Z1000 E9000 ; sets maximum accelerations, mm/sec^2
M203 X200 Y200 Z12 E120 ; sets maximum feedrates, mm/sec
M204 S1250 T1250 ; sets acceleration (S) and retract acceleration (T)
M205 X8 Y8 Z0.4 E1.5 ; sets the jerk limits, mm/sec
M205 S0 T0 ; sets the minimum extruding and travel feed rate, mm/sec
M83  ; extruder relative mode
M104 S230 ; set extruder temp
M140 S85 ; set bed temp
M190 S85 ; wait for bed temp
M109 S230 ; wait for extruder temp
G28 W ; home all without mesh bed level
G80 ; mesh bed leveling
G1 Y-3.0 F1000.0 ; go outside print area
G92 E0.0
G1 X60.0 E9.0  F1000.0 ; intro line
G1 X100.0 E12.5  F1000.0 ; intro line
G92 E0.0
M221 S95
M900 K45; Filament gcode
G21 ; set units to millimeters
G90 ; use absolute coordinates
M83 ; use relative distances for extrusion
;BEFORE_LAYER_CHANGE
G92 E0.0
;0.2


G1 E-1.00000 F2100.00000
G1 Z0.600 F6000.000
;AFTER_LAYER_CHANGE
;0.2
G1 X59.161 Y35.849
G1 Z0.200
G1 E1.00000 F2100.00000
M204 S1000
G1 F1200
G1 X59.445 Y35.262 E0.02044
G1 X59.789 Y34.870 E0.01635
G1 X60.219 Y34.569 E0.01646
G1 X60.709 Y34.379 E0.01646
G1 X61.230 Y34.312 E0.01646
G1 X188.856 Y34.314 E4.00164
G1 X189.543 Y34.460 E0.02202
G1 X190.145 Y34.814 E0.02191
G1 X190.606 Y35.340 E0.02191
G1 X190.878 Y35.987 E0.02202
G1 X190.939 Y36.498 E0.01612
G1 X190.939 Y173.504 E4.29572
G1 X190.840 Y174.148 E0.02044
G1 X190.555 Y174.738 E0.02055
G1 X190.208 Y175.132 E0.01646
G1 X189.774 Y175.434 E0.01658
G1 X189.280 Y175.623 E0.01658
G1 X188.760 Y175.689 E0.01646
G1 X61.243 Y175.689 E3.99820
G1 X60.598 Y175.589 E0.02044
G1 X60.012 Y175.305 E0.02044
G1 X59.618 Y174.958 E0.01646
G1 X59.316 Y174.524 E0.01658
G1 X59.127 Y174.030 E0.01658
G1 X59.061 Y173.510 E0.01646
G1 X59.062 Y36.493 E4.29607
G1 X59.152 Y35.908 E0.01855
; PURGING FINISHED
G1 F4800
G1 X59.445 Y35.262 E-0.29482
G1 X59.789 Y34.870 E-0.21671
G1 X60.219 Y34.569 E-0.21821
G1 X60.709 Y34.379 E-0.21822
G1 X60.714 Y34.379 E-0.00204
G1 E-0.05000 F2100.00000
G1 Z0.800 F6000.000
G1 X137.942 Y41.364
G1 Z0.200
G1 E1.00000 F2100.00000
G1 F1200
G1 X141.209 Y43.367 E0.12015
G1 X143.934 Y45.124 E0.10167
G1 X146.619 Y46.943 E0.10168
G1 X149.391 Y48.918 E0.10671
G1 X151.861 Y50.759 E0.09660
G1 X154.416 Y52.755 E0.10167
G1 X156.925 Y54.809 E0.10167
G1 X159.388 Y56.919 E0.10167
G1 X161.802 Y59.084 E0.10168
G1 X164.281 Y61.416 E0.10671
G1 X166.479 Y63.575 E0.09660
G1 X168.740 Y65.899 E0.10168
G1 X171.055 Y68.394 E0.10671
G1 X173.102 Y70.697 E0.09660
G1 X175.201 Y73.170 E0.10168
G1 X177.341 Y75.816 E0.10671
G1 X179.226 Y78.252 E0.09660
G1 X181.152 Y80.861 E0.10167
G1 X183.019 Y83.513 E0.10167
G1 X184.824 Y86.206 E0.10167
G1 X186.886 Y89.436 E0.12015
G1 X184.895 Y92.712 E0.12019
G1 X183.147 Y95.445 E0.10171
G1 X181.336 Y98.136 E0.10171
G1 X179.464 Y100.785 E0.10171
G1 X177.532 Y103.391 E0.10171
G1 X175.540 Y105.951 E0.10171
G1 X173.489 Y108.465 E0.10171
G1 X171.381 Y110.930 E0.10171
G1 X169.217 Y113.347 E0.10171
G1 X166.998 Y115.713 E0.10171
G1 X164.725 Y118.027 E0.10171
G1 X162.399 Y120.289 E0.10171
G1 X160.022 Y122.496 E0.10171
G1 X157.594 Y124.648 E0.10171
G1 X155.118 Y126.743 E0.10171
G1 X152.594 Y128.781 E0.10171
G1 X150.024 Y130.760 E0.10171
G1 X147.408 Y132.679 E0.10171
G1 X144.750 Y134.538 E0.10171
G1 X142.049 Y136.335 E0.10171
G1 X138.809 Y138.384 E0.12019
G1 X135.543 Y136.381 E0.12015
G1 X132.818 Y134.624 E0.10167
G1 X130.133 Y132.806 E0.10167
G1 X127.490 Y130.927 E0.10167
G1 X124.890 Y128.989 E0.10167
G1 X122.335 Y126.993 E0.10167
G1 X119.826 Y124.939 E0.10168
G1 X117.244 Y122.722 E0.10671
G1 X114.950 Y120.665 E0.09660
G1 X112.586 Y118.445 E0.10167
G1 X110.273 Y116.173 E0.10167
G1 X108.012 Y113.849 E0.10167
G1 X105.803 Y111.475 E0.10167
G1 X103.650 Y109.051 E0.10167
G1 X101.551 Y106.579 E0.10167
G1 X99.509 Y104.060 E0.10168
G1 X97.429 Y101.366 E0.10671
G1 X95.599 Y98.887 E0.09660
G1 X93.733 Y96.236 E0.10167
G1 X91.927 Y93.543 E0.10167
G1 X89.866 Y90.313 E0.12015
G1 X91.857 Y87.037 E0.12019
G1 X93.605 Y84.304 E0.10171
G1 X95.415 Y81.612 E0.10171
G1 X97.287 Y78.963 E0.10171
G1 X99.220 Y76.358 E0.10171
G1 X101.212 Y73.797 E0.10173
G1 X103.367 Y71.161 E0.10676
G1 X105.370 Y68.818 E0.09664
G1 X107.534 Y66.402 E0.10171
G1 X109.754 Y64.036 E0.10171
G1 X112.027 Y61.721 E0.10173
G1 X114.471 Y59.350 E0.10676
G1 X116.730 Y57.253 E0.09664
G1 X119.157 Y55.101 E0.10171
G1 X121.634 Y53.005 E0.10173
G1 X124.286 Y50.869 E0.10676
G1 X126.728 Y48.988 E0.09664
G1 X129.343 Y47.069 E0.10171
G1 X132.002 Y45.210 E0.10173
G1 X134.839 Y43.327 E0.10676
G1 X137.891 Y41.396 E0.11324
G1 X137.945 Y41.808 F6000.000
G1 F1200
G1 X141.008 Y43.687 E0.11265
G1 X143.726 Y45.439 E0.10140
G1 X146.404 Y47.253 E0.10141
G1 X149.169 Y49.223 E0.10645
G1 X151.632 Y51.059 E0.09634
G1 X154.181 Y53.050 E0.10140
G1 X156.683 Y55.098 E0.10140
G1 X159.139 Y57.203 E0.10140
G1 X161.547 Y59.362 E0.10141
G1 X164.019 Y61.688 E0.10645
G1 X166.211 Y63.841 E0.09634
G1 X168.467 Y66.159 E0.10141
G1 X170.776 Y68.648 E0.10645
G1 X172.817 Y70.945 E0.09634
G1 X174.910 Y73.410 E0.10141
G1 X177.045 Y76.050 E0.10645
G1 X178.926 Y78.480 E0.09634
G1 X180.846 Y81.082 E0.10140
G1 X182.708 Y83.726 E0.10140
G1 X184.509 Y86.412 E0.10140
G1 X186.442 Y89.441 E0.11265
G1 X184.575 Y92.512 E0.11269
G1 X182.832 Y95.238 E0.10144
G1 X181.026 Y97.922 E0.10144
G1 X179.159 Y100.564 E0.10144
G1 X177.231 Y103.163 E0.10144
G1 X175.245 Y105.716 E0.10144
G1 X173.200 Y108.223 E0.10144
G1 X171.097 Y110.682 E0.10144
G1 X168.939 Y113.092 E0.10144
G1 X166.726 Y115.452 E0.10144
G1 X164.459 Y117.760 E0.10144
G1 X162.139 Y120.015 E0.10144
G1 X159.768 Y122.217 E0.10144
G1 X157.347 Y124.363 E0.10144
G1 X154.878 Y126.453 E0.10144
G1 X152.360 Y128.485 E0.10144
G1 X149.797 Y130.459 E0.10144
G1 X147.189 Y132.373 E0.10144
G1 X144.537 Y134.227 E0.10144
G1 X141.844 Y136.019 E0.10144
G1 X138.806 Y137.940 E0.11269
G1 X135.743 Y136.062 E0.11265
G1 X133.025 Y134.310 E0.10140
G1 X130.348 Y132.496 E0.10140
G1 X127.712 Y130.622 E0.10140
G1 X125.119 Y128.690 E0.10140
G1 X122.571 Y126.699 E0.10140
G1 X120.068 Y124.650 E0.10141
G1 X117.492 Y122.438 E0.10645
G1 X115.205 Y120.387 E0.09634
G1 X112.847 Y118.173 E0.10140
G1 X110.540 Y115.907 E0.10140
G1 X108.285 Y113.590 E0.10140
G1 X106.082 Y111.221 E0.10140
G1 X103.934 Y108.804 E0.10140
G1 X101.842 Y106.339 E0.10140
G1 X99.805 Y103.826 E0.10141
G1 X97.730 Y101.139 E0.10645
G1 X95.905 Y98.667 E0.09634
G1 X94.044 Y96.022 E0.10140
G1 X92.243 Y93.336 E0.10140
G1 X90.310 Y90.308 E0.11265
G1 X92.177 Y87.236 E0.11269
G1 X93.920 Y84.511 E0.10144
G1 X95.726 Y81.826 E0.10144
G1 X97.593 Y79.184 E0.10144
G1 X99.520 Y76.586 E0.10144
G1 X101.507 Y74.032 E0.10145
G1 X103.657 Y71.403 E0.10649
G1 X105.654 Y69.066 E0.09638
G1 X107.812 Y66.656 E0.10144
G1 X110.026 Y64.297 E0.10144
G1 X112.293 Y61.988 E0.10145
G1 X114.731 Y59.623 E0.10649
G1 X116.983 Y57.532 E0.09638
G1 X119.404 Y55.386 E0.10144
G1 X121.874 Y53.296 E0.10145
G1 X124.519 Y51.165 E0.10649
G1 X126.955 Y49.290 E0.09638
G1 X129.563 Y47.376 E0.10144
G1 X132.215 Y45.522 E0.10145
G1 X135.044 Y43.644 E0.10649
G1 X137.894 Y41.840 E0.10575
G1 X137.948 Y42.253 F6000.000
G1 F1200
G1 X140.807 Y44.006 E0.10516
G1 X143.518 Y45.754 E0.10113
G1 X146.189 Y47.562 E0.10113
G1 X148.947 Y49.527 E0.10618
G1 X151.404 Y51.359 E0.09608
G1 X153.945 Y53.345 E0.10113
G1 X156.441 Y55.387 E0.10113
G1 X158.890 Y57.486 E0.10113
G1 X161.292 Y59.640 E0.10113
G1 X163.758 Y61.960 E0.10618
G1 X165.944 Y64.107 E0.09608
G1 X168.194 Y66.419 E0.10113
G1 X170.497 Y68.901 E0.10618
G1 X172.532 Y71.192 E0.09608
G1 X174.620 Y73.651 E0.10113
G1 X176.750 Y76.284 E0.10618
G1 X178.625 Y78.707 E0.09608
G1 X180.540 Y81.302 E0.10113
G1 X182.397 Y83.940 E0.10113
G1 X184.193 Y86.619 E0.10113
G1 X185.997 Y89.446 E0.10516
G1 X184.255 Y92.313 E0.10519
G1 X182.516 Y95.031 E0.10117
G1 X180.715 Y97.708 E0.10117
G1 X178.853 Y100.343 E0.10117
G1 X176.931 Y102.935 E0.10117
G1 X174.950 Y105.481 E0.10117
G1 X172.910 Y107.981 E0.10117
G1 X170.814 Y110.434 E0.10117
G1 X168.661 Y112.837 E0.10117
G1 X166.454 Y115.191 E0.10117
G1 X164.193 Y117.493 E0.10117
G1 X161.880 Y119.742 E0.10117
G1 X159.515 Y121.937 E0.10117
G1 X157.101 Y124.078 E0.10117
G1 X154.637 Y126.162 E0.10117
G1 X152.127 Y128.189 E0.10117
G1 X149.570 Y130.157 E0.10117
G1 X146.969 Y132.066 E0.10117
G1 X144.325 Y133.915 E0.10117
G1 X141.639 Y135.702 E0.10117
G1 X138.803 Y137.496 E0.10519
G1 X135.944 Y135.743 E0.10516
G1 X133.233 Y133.995 E0.10113
G1 X130.563 Y132.186 E0.10113
G1 X127.934 Y130.318 E0.10113
G1 X125.348 Y128.390 E0.10113
G1 X122.806 Y126.404 E0.10113
G1 X120.310 Y124.361 E0.10113
G1 X117.741 Y122.155 E0.10618
G1 X115.460 Y120.109 E0.09608
G1 X113.108 Y117.901 E0.10113
G1 X110.807 Y115.641 E0.10113
G1 X108.558 Y113.330 E0.10113
G1 X106.362 Y110.968 E0.10113
G1 X104.219 Y108.557 E0.10113
G1 X102.132 Y106.098 E0.10113
G1 X100.101 Y103.592 E0.10113
G1 X98.031 Y100.912 E0.10618
G1 X96.211 Y98.446 E0.09608
G1 X94.355 Y95.809 E0.10113
G1 X92.558 Y93.130 E0.10113
G1 X90.754 Y90.303 E0.10516
G1 X92.496 Y87.436 E0.10519
G1 X94.235 Y84.718 E0.10117
G1 X96.036 Y82.040 E0.10117
G1 X97.898 Y79.405 E0.10117
G1 X99.820 Y76.814 E0.10117
G1 X101.802 Y74.267 E0.10117
G1 X103.946 Y71.645 E0.10622
G1 X105.938 Y69.315 E0.09611
G1 X108.090 Y66.911 E0.10117
G1 X110.298 Y64.558 E0.10117
G1 X112.559 Y62.256 E0.10117
G1 X114.990 Y59.897 E0.10622
G1 X117.237 Y57.811 E0.09611
G1 X119.651 Y55.671 E0.10117
G1 X122.114 Y53.587 E0.10117
G1 X124.752 Y51.461 E0.10622
G1 X127.181 Y49.591 E0.09611
G1 X129.782 Y47.682 E0.10117
G1 X132.427 Y45.833 E0.10117
G1 X135.249 Y43.960 E0.10622
G1 X137.898 Y42.285 E0.09826
G1 X138.206 Y41.946 F6000.000
G1 F4800
G1 X139.865 Y43.448 E-0.95000
G1 E-0.05000 F2100.00000
G1 Z0.800 F6000.000
G1 X169.367 Y52.651
G1 Z0.200
G1 E1.00000 F2100.00000
G1 F1200
G1 X169.593 Y52.166 E0.01677
G1 X169.900 Y51.728 E0.01677
G1 X170.278 Y51.350 E0.01677
G1 X170.716 Y51.043 E0.01677
G1 X171.201 Y50.817 E0.01677
G1 X171.717 Y50.679 E0.01677
G1 X172.228 Y50.634 E0.01607
G1 X172.779 Y50.678 E0.01733
G1 X173.299 Y50.817 E0.01689
G1 X173.784 Y51.043 E0.01677
G1 X174.222 Y51.350 E0.01677
G1 X174.600 Y51.728 E0.01677
G1 X174.907 Y52.166 E0.01677
G1 X175.133 Y52.651 E0.01677
G1 X175.271 Y53.167 E0.01677
G1 X175.318 Y53.700 E0.01677
G1 X175.271 Y54.233 E0.01677
G1 X175.133 Y54.749 E0.01677
G1 X174.907 Y55.234 E0.01677
G1 X174.600 Y55.672 E0.01677
G1 X174.222 Y56.050 E0.01677
G1 X173.784 Y56.357 E0.01677
G1 X173.299 Y56.583 E0.01677
G1 X172.783 Y56.721 E0.01677
G1 X172.250 Y56.768 E0.01677
G1 X171.717 Y56.721 E0.01677
G1 X171.201 Y56.583 E0.01677
G1 X170.716 Y56.357 E0.01677
G1 X170.278 Y56.050 E0.01677
G1 X169.900 Y55.672 E0.01677
G1 X169.593 Y55.234 E0.01677
G1 X169.367 Y54.749 E0.01677
G1 X169.235 Y54.254 E0.01607
G1 X169.182 Y53.704 E0.01733
G1 X169.229 Y53.167 E0.01689
G1 X169.352 Y52.709 E0.01489
G1 X169.716 Y52.806 F6000.000
G1 F1200
G1 X169.921 Y52.355 E0.01553
G1 X170.190 Y51.971 E0.01470
G1 X170.521 Y51.640 E0.01470
G1 X170.905 Y51.371 E0.01470
G1 X171.330 Y51.173 E0.01470
G1 X171.783 Y51.052 E0.01470
G1 X172.229 Y51.013 E0.01405
G1 X172.715 Y51.051 E0.01526
G1 X173.170 Y51.173 E0.01477
G1 X173.595 Y51.371 E0.01470
G1 X173.979 Y51.640 E0.01470
G1 X174.310 Y51.971 E0.01470
G1 X174.579 Y52.355 E0.01470
G1 X174.777 Y52.780 E0.01470
G1 X174.898 Y53.233 E0.01470
G1 X174.939 Y53.700 E0.01470
G1 X174.898 Y54.167 E0.01470
G1 X174.777 Y54.620 E0.01470
G1 X174.579 Y55.045 E0.01470
G1 X174.310 Y55.429 E0.01470
G1 X173.979 Y55.760 E0.01470
G1 X173.595 Y56.029 E0.01470
G1 X173.170 Y56.227 E0.01470
G1 X172.717 Y56.349 E0.01470
G1 X172.250 Y56.389 E0.01470
G1 X171.783 Y56.349 E0.01470
G1 X171.330 Y56.227 E0.01470
G1 X170.905 Y56.029 E0.01470
G1 X170.521 Y55.760 E0.01470
G1 X170.190 Y55.429 E0.01470
G1 X169.921 Y55.045 E0.01470
G1 X169.723 Y54.620 E0.01470
G1 X169.607 Y54.187 E0.01405
G1 X169.560 Y53.702 E0.01526
G1 X169.602 Y53.233 E0.01478
G1 X169.700 Y52.864 E0.01197
G1 X170.065 Y52.962 F6000.000
G1 F1200
G1 X170.249 Y52.545 E0.01430
G1 X170.480 Y52.215 E0.01263
G1 X170.765 Y51.930 E0.01263
G1 X171.095 Y51.699 E0.01263
G1 X171.460 Y51.529 E0.01263
G1 X171.849 Y51.424 E0.01263
G1 X172.231 Y51.391 E0.01203
G1 X172.650 Y51.424 E0.01320
G1 X173.040 Y51.529 E0.01266
G1 X173.405 Y51.699 E0.01263
G1 X173.735 Y51.930 E0.01263
G1 X174.020 Y52.215 E0.01263
G1 X174.251 Y52.545 E0.01263
G1 X174.421 Y52.910 E0.01263
G1 X174.526 Y53.299 E0.01263
G1 X174.561 Y53.700 E0.01263
G1 X174.526 Y54.101 E0.01263
G1 X174.421 Y54.490 E0.01263
G1 X174.251 Y54.855 E0.01263
G1 X174.020 Y55.185 E0.01263
G1 X173.735 Y55.470 E0.01263
G1 X173.405 Y55.701 E0.01263
G1 X173.040 Y55.871 E0.01263
G1 X172.651 Y55.976 E0.01263
G1 X172.250 Y56.011 E0.01263
G1 X171.849 Y55.976 E0.01263
G1 X171.460 Y55.871 E0.01263
G1 X171.095 Y55.701 E0.01263
G1 X170.765 Y55.470 E0.01263
G1 X170.480 Y55.185 E0.01263
G1 X170.249 Y54.855 E0.01263
G1 X170.079 Y54.490 E0.01263
G1 X169.979 Y54.120 E0.01203
G1 X169.939 Y53.701 E0.01320
G1 X169.974 Y53.299 E0.01266
G1 X170.049 Y53.020 E0.00905
G1 X169.803 Y52.660 F6000.000
G1 F4800
G1 X170.249 Y52.545 E-0.21424
G1 X170.480 Y52.215 E-0.16741
G1 X170.765 Y51.930 E-0.16741
G1 X171.095 Y51.699 E-0.16741
G1 X171.460 Y51.529 E-0.16742
G1 X171.613 Y51.487 E-0.06610
G1 E-0.05000 F2100.00000
G1 Z0.800 F6000.000
G1 X172.228 Y120.934
G1 Z0.200
G1 E1.00000 F2100.00000
G1 F1200
G1 X172.779 Y120.978 E0.01733
G1 X173.299 Y121.117 E0.01689
G1 X173.784 Y121.343 E0.01677
G1 X174.222 Y121.650 E0.01677
G1 X174.600 Y122.028 E0.01677
G1 X174.907 Y122.466 E0.01677
G1 X175.133 Y122.951 E0.01677
G1 X175.271 Y123.467 E0.01677
G1 X175.318 Y124.000 E0.01677
G1 X175.271 Y124.533 E0.01677
G1 X175.133 Y125.049 E0.01677
G1 X174.907 Y125.534 E0.01677
G1 X174.600 Y125.972 E0.01677
G1 X174.222 Y126.350 E0.01677
G1 X173.802 Y126.644 E0.01607
G1 X173.303 Y126.882 E0.01733
G1 X172.783 Y127.021 E0.01689
G1 X172.250 Y127.068 E0.01677
G1 X171.717 Y127.021 E0.01677
G1 X171.201 Y126.883 E0.01677
G1 X170.716 Y126.657 E0.01677
G1 X170.278 Y126.350 E0.01677
G1 X169.900 Y125.972 E0.01677
G1 X169.593 Y125.534 E0.01677
G1 X169.367 Y125.049 E0.01677
G1 X169.229 Y124.533 E0.01677
G1 X169.182 Y124.000 E0.01677
G1 X169.229 Y123.467 E0.01677
G1 X169.367 Y122.951 E0.01677
G1 X169.593 Y122.466 E0.01677
G1 X169.900 Y122.028 E0.01677
G1 X170.278 Y121.650 E0.01677
G1 X170.716 Y121.343 E0.01677
G1 X171.201 Y121.117 E0.01677
G1 X171.717 Y120.979 E0.01677
G1 X172.168 Y120.939 E0.01419
G1 X172.201 Y121.315 F6000.000
G1 F1200
G1 X172.715 Y121.351 E0.01615
G1 X173.170 Y121.473 E0.01477
G1 X173.595 Y121.671 E0.01470
G1 X173.979 Y121.940 E0.01470
G1 X174.310 Y122.271 E0.01470
G1 X174.579 Y122.655 E0.01470
G1 X174.777 Y123.080 E0.01470
G1 X174.898 Y123.533 E0.01470
G1 X174.939 Y124.000 E0.01470
G1 X174.898 Y124.467 E0.01470
G1 X174.777 Y124.920 E0.01470
G1 X174.579 Y125.345 E0.01470
G1 X174.310 Y125.729 E0.01470
G1 X173.979 Y126.060 E0.01470
G1 X173.612 Y126.317 E0.01405
G1 X173.172 Y126.526 E0.01526
G1 X172.717 Y126.648 E0.01477
G1 X172.250 Y126.689 E0.01470
G1 X171.783 Y126.648 E0.01470
G1 X171.330 Y126.527 E0.01470
G1 X170.905 Y126.329 E0.01470
G1 X170.521 Y126.060 E0.01470
G1 X170.190 Y125.729 E0.01470
G1 X169.921 Y125.345 E0.01470
G1 X169.723 Y124.920 E0.01470
G1 X169.602 Y124.467 E0.01470
G1 X169.561 Y124.000 E0.01470
G1 X169.602 Y123.533 E0.01470
G1 X169.723 Y123.080 E0.01470
G1 X169.921 Y122.655 E0.01470
G1 X170.190 Y122.271 E0.01470
