; generated by Slic3r Prusa Edition 1.41.0+win64 on 2018-10-17 at 20:34:18

; 

; external perimeters extrusion width = 0.45mm
; perimeters extrusion width = 0.45mm
; infill extrusion width = 0.45mm
; solid infill extrusion width = 0.45mm
; top infill extrusion width = 0.40mm
; first layer extrusion width = 0.42mm

M201 X9000 Y9000 Z500 E10000 ; sets maximum accelerations, mm/sec^2
M203 X500 Y500 Z12 E120 ; sets maximum feedrates, mm/sec
M204 P1500 R1500 T1500 ; sets acceleration (P, T) and retract acceleration (R), mm/sec^2
M205 X10.00 Y10.00 Z0.20 E2.50 ; sets the jerk limits, mm/sec
M205 S0 T0 ; sets the minimum extruding and travel feed rate, mm/sec
M107
M115 U3.3.1 ; tell printer latest fw version
M201 X1000 Y1000 Z1000 E9000 ; sets maximum accelerations, mm/sec^2
M203 X200 Y200 Z12 E120 ; sets maximum feedrates, mm/sec
M204 S1250 T1250 ; sets acceleration (S) and retract acceleration (T)
M205 X8 Y8 Z0.4 E1.5 ; sets the jerk limits, mm/sec
M205 S0 T0 ; sets the minimum extruding and travel feed rate, mm/sec
M83  ; extruder relative mode
M104 S230 ; set extruder temp
M140 S85 ; set bed temp
M190 S85 ; wait for bed temp
M109 S230 ; wait for extruder temp
G28 W ; home all without mesh bed level
G80 ; mesh bed leveling
G1 Y-3.0 F1000.0 ; go outside print area
G92 E0.0
G1 X60.0 E9.0  F1000.0 ; intro line
G1 X100.0 E12.5  F1000.0 ; intro line
G92 E0.0
M221 S95
M900 K45; Filament gcode
G21 ; set units to millimeters
G90 ; use absolute coordinates
M83 ; use relative distances for extrusion
;BEFORE_LAYER_CHANGE
G92 E0.0
;0.2


G1 E-1.00000 F2100.00000
G1 Z0.600 F6000.000
;AFTER_LAYER_CHANGE
;0.2
G1 X89.610 Y76.818
G1 Z0.200
G1 E1.00000 F2100.00000
M204 S1000
G1 F1200
G1 X90.841 Y75.904 E0.04806
G1 X92.176 Y75.330 E0.04558
G1 X93.574 Y75.074 E0.04455
G1 X129.414 Y75.058 E1.12375
G1 X130.402 Y75.089 E0.03099
G1 X131.275 Y75.264 E0.02793
G1 X132.125 Y75.599 E0.02862
G1 X132.900 Y76.080 E0.02862
G1 X157.057 Y95.203 E0.96600
G1 X157.816 Y95.970 E0.03384
G1 X158.397 Y96.879 E0.03384
G1 X158.786 Y97.940 E0.03541
G1 X158.931 Y99.065 E0.03558
G1 X158.931 Y129.838 E0.96486
G1 X158.872 Y130.565 E0.02288
G1 X158.709 Y131.282 E0.02305
G1 X158.446 Y131.963 E0.02288
G1 X158.086 Y132.603 E0.02305
G1 X157.288 Y133.539 E0.03853
G1 X156.295 Y134.253 E0.03836
G1 X155.155 Y134.711 E0.03853
G1 X153.938 Y134.883 E0.03853
G1 X93.838 Y134.939 E1.88440
G1 X92.941 Y134.856 E0.02825
G1 X92.094 Y134.657 E0.02729
G1 X91.190 Y134.301 E0.03045
G1 X90.440 Y133.874 E0.02707
G1 X89.304 Y132.914 E0.04663
G1 X88.366 Y131.626 E0.04997
G1 X87.806 Y130.259 E0.04634
G1 X87.571 Y128.749 E0.04790
G1 X87.610 Y81.302 E1.48768
G1 X87.696 Y80.416 E0.02790
G1 X87.895 Y79.574 E0.02711
G1 X88.250 Y78.676 E0.03028
G1 X88.674 Y77.931 E0.02690
G1 X89.571 Y76.864 E0.04370
G1 F4800
G1 X90.841 Y75.904 E-0.66131
G1 X91.479 Y75.630 E-0.28869
G1 E-0.05000 F2100.00000
G1 Z0.800 F6000.000
G1 X154.694 Y114.479
G1 Z0.200
G1 E1.00000 F2100.00000
G1 F1200
G1 X155.245 Y114.744 E0.01916
G1 X156.444 Y115.773 E0.04954
G1 X157.146 Y116.827 E0.03971
G1 X157.534 Y118.119 E0.04231
G1 X157.564 Y129.534 E0.35790
G1 X157.319 Y130.700 E0.03736
G1 X156.814 Y131.700 E0.03514
G1 X155.733 Y132.850 E0.04947
G1 X154.675 Y133.478 E0.03858
G1 X153.452 Y133.797 E0.03964
G1 X141.753 Y133.801 E0.36681
G1 X140.827 Y133.672 E0.02930
G1 X139.932 Y133.380 E0.02950
G1 X139.103 Y132.937 E0.02948
G1 X138.361 Y132.353 E0.02961
G1 X137.651 Y131.532 E0.03403
G1 X137.155 Y130.659 E0.03148
G1 X136.836 Y129.736 E0.03062
G1 X136.689 Y128.712 E0.03243
G1 X136.697 Y119.105 E0.30121
G1 X136.843 Y118.178 E0.02945
G1 X137.131 Y117.336 E0.02788
G1 X137.571 Y116.529 E0.02882
G1 X138.151 Y115.799 E0.02924
G1 X138.890 Y115.151 E0.03082
G1 X140.066 Y114.460 E0.04276
G1 X139.076 Y113.919 E0.03538
G1 X138.335 Y113.329 E0.02969
G1 X137.672 Y112.561 E0.03183
G1 X137.155 Y111.658 E0.03259
G1 X136.820 Y110.665 E0.03288
G1 X136.685 Y109.660 E0.03179
G1 X136.697 Y100.105 E0.29958
G1 X136.835 Y99.210 E0.02839
G1 X137.131 Y98.337 E0.02891
G1 X137.571 Y97.529 E0.02884
G1 X138.126 Y96.824 E0.02815
G1 X138.890 Y96.152 E0.03189
G1 X139.753 Y95.643 E0.03141
G1 X140.726 Y95.294 E0.03242
G1 X141.685 Y95.146 E0.03040
G1 X153.465 Y95.151 E0.36937
G1 X154.347 Y95.341 E0.02830
G1 X155.202 Y95.717 E0.02929
G1 X156.411 Y96.735 E0.04955
G1 X157.171 Y97.880 E0.04309
G1 X157.542 Y99.173 E0.04218
G1 X157.560 Y110.571 E0.35737
G1 X157.335 Y111.654 E0.03467
G1 X156.814 Y112.700 E0.03665
G1 X155.817 Y113.782 E0.04615
G1 X154.745 Y114.447 E0.03953
G1 X153.821 Y114.316 F6000.000
G1 F1200
G1 X153.825 Y114.610 E0.00923
G1 X154.282 Y114.717 E0.01470
G1 X155.023 Y115.050 E0.02549
G1 X156.147 Y116.005 E0.04624
G1 X156.794 Y116.965 E0.03629
G1 X157.157 Y118.149 E0.03881
G1 X157.187 Y129.515 E0.35640
G1 X156.971 Y130.555 E0.03328
G1 X156.518 Y131.464 E0.03185
G1 X155.517 Y132.540 E0.04608
G1 X154.506 Y133.139 E0.03685
G1 X153.382 Y133.426 E0.03638
G1 X141.766 Y133.424 E0.36421
G1 X140.897 Y133.301 E0.02753
G1 X140.067 Y133.027 E0.02741
G1 X139.297 Y132.613 E0.02741
G1 X138.609 Y132.069 E0.02750
G1 X137.969 Y131.328 E0.03068
G1 X137.506 Y130.519 E0.02925
G1 X137.199 Y129.630 E0.02948
G1 X137.064 Y128.673 E0.03031
G1 X137.074 Y119.121 E0.29950
G1 X137.213 Y118.254 E0.02753
G1 X137.482 Y117.475 E0.02584
G1 X137.893 Y116.725 E0.02682
G1 X138.434 Y116.048 E0.02717
G1 X139.124 Y115.448 E0.02867
G1 X139.927 Y114.978 E0.02917
G1 X140.995 Y114.606 E0.03546
G1 X140.994 Y114.337 E0.00845
G1 X140.037 Y114.015 E0.03166
G1 X139.297 Y113.613 E0.02639
G1 X138.584 Y113.045 E0.02859
G1 X137.969 Y112.329 E0.02960
G1 X137.506 Y111.519 E0.02925
G1 X137.191 Y110.596 E0.03060
G1 X137.062 Y109.648 E0.03000
G1 X137.074 Y100.121 E0.29871
G1 X137.205 Y99.285 E0.02651
G1 X137.483 Y98.475 E0.02686
G1 X137.893 Y97.724 E0.02682
G1 X138.411 Y97.072 E0.02611
G1 X139.124 Y96.448 E0.02972
G1 X139.928 Y95.977 E0.02919
G1 X140.803 Y95.664 E0.02913
G1 X141.699 Y95.523 E0.02846
G1 X153.444 Y95.528 E0.36824
G1 X154.247 Y95.705 E0.02577
G1 X155.024 Y96.050 E0.02666
G1 X156.146 Y97.005 E0.04621
G1 X156.817 Y98.014 E0.03799
G1 X157.165 Y99.201 E0.03879
G1 X157.187 Y110.516 E0.35476
G1 X156.986 Y111.511 E0.03182
G1 X156.518 Y112.465 E0.03332
G1 X155.558 Y113.507 E0.04443
G1 X154.555 Y114.119 E0.03683
G1 X153.879 Y114.300 E0.02196
G1 X154.386 Y113.781 F6000.000
G1 F1200
G1 X153.312 Y114.054 E0.03475
G1 X141.780 Y114.047 E0.36157
G1 X140.968 Y113.930 E0.02573
G1 X140.202 Y113.675 E0.02530
G1 X139.492 Y113.290 E0.02534
G1 X138.858 Y112.785 E0.02541
G1 X138.287 Y112.125 E0.02735
G1 X137.842 Y111.348 E0.02810
G1 X137.562 Y110.526 E0.02721
G1 X137.439 Y109.635 E0.02821
G1 X137.451 Y100.136 E0.29783
G1 X137.575 Y99.362 E0.02459
G1 X137.833 Y98.614 E0.02480
G1 X138.215 Y97.921 E0.02481
G1 X138.695 Y97.321 E0.02407
G1 X139.358 Y96.744 E0.02756
G1 X140.102 Y96.312 E0.02698
G1 X140.880 Y96.034 E0.02590
G1 X141.715 Y95.900 E0.02651
G1 X153.383 Y95.900 E0.36584
G1 X154.146 Y96.069 E0.02451
G1 X154.844 Y96.383 E0.02398
G1 X155.881 Y97.274 E0.04288
G1 X156.464 Y98.150 E0.03300
G1 X156.788 Y99.230 E0.03536
G1 X156.809 Y110.497 E0.35327
G1 X156.621 Y111.411 E0.02927
G1 X156.222 Y112.230 E0.02855
G1 X155.299 Y113.231 E0.04270
G1 X154.437 Y113.750 E0.03153
G1 X154.263 Y113.424 F6000.000
G1 F1200
G1 X153.287 Y113.677 E0.03160
G1 X141.819 Y113.671 E0.35959
G1 X141.069 Y113.567 E0.02374
G1 X140.366 Y113.335 E0.02322
G1 X139.713 Y112.984 E0.02322
G1 X139.107 Y112.501 E0.02429
G1 X138.586 Y111.894 E0.02509
G1 X138.179 Y111.178 E0.02583
G1 X137.925 Y110.423 E0.02496
G1 X137.816 Y109.623 E0.02533
G1 X137.826 Y100.179 E0.29609
G1 X137.937 Y99.467 E0.02260
G1 X138.172 Y98.780 E0.02277
G1 X138.521 Y98.143 E0.02276
G1 X138.978 Y97.570 E0.02300
G1 X139.590 Y97.042 E0.02535
G1 X140.275 Y96.648 E0.02476
G1 X140.988 Y96.395 E0.02374
G1 X141.758 Y96.275 E0.02442
G1 X153.361 Y96.277 E0.36381
G1 X154.043 Y96.432 E0.02192
G1 X154.662 Y96.714 E0.02132
G1 X155.613 Y97.541 E0.03953
G1 X156.133 Y98.332 E0.02969
G1 X156.418 Y99.309 E0.03191
G1 X156.432 Y110.478 E0.35020
G1 X156.271 Y111.271 E0.02535
G1 X155.924 Y111.997 E0.02525
G1 X155.078 Y112.924 E0.03934
G1 X154.314 Y113.392 E0.02809
G1 X154.137 Y113.067 F6000.000
G1 F1200
G1 X153.262 Y113.300 E0.02840
G1 X141.857 Y113.296 E0.35762
G1 X141.170 Y113.203 E0.02172
G1 X140.500 Y112.982 E0.02212
G1 X139.908 Y112.661 E0.02110
G1 X139.358 Y112.219 E0.02215
G1 X138.885 Y111.663 E0.02287
G1 X138.530 Y111.039 E0.02253
G1 X138.296 Y110.353 E0.02271
G1 X138.193 Y109.610 E0.02353
G1 X138.201 Y100.222 E0.29436
G1 X138.300 Y99.572 E0.02061
G1 X138.511 Y98.946 E0.02069
G1 X138.843 Y98.339 E0.02170
G1 X139.260 Y97.821 E0.02087
G1 X139.821 Y97.340 E0.02315
G1 X140.446 Y96.984 E0.02254
G1 X141.095 Y96.757 E0.02158
G1 X141.800 Y96.650 E0.02234
G1 X153.300 Y96.650 E0.36058
G1 X153.905 Y96.784 E0.01942
G1 X154.479 Y97.045 E0.01979
G1 X155.344 Y97.806 E0.03610
G1 X155.801 Y98.512 E0.02638
G1 X156.049 Y99.386 E0.02849
G1 X156.055 Y110.460 E0.34721
G1 X155.919 Y111.133 E0.02152
G1 X155.624 Y111.767 E0.02194
G1 X154.855 Y112.619 E0.03598
G1 X154.188 Y113.035 E0.02465
G1 X154.009 Y112.711 F6000.000
G1 F1200
G1 X153.236 Y112.923 E0.02512
G1 X141.893 Y112.920 E0.35567
G1 X141.269 Y112.839 E0.01972
G1 X140.664 Y112.642 E0.01995
G1 X140.104 Y112.338 E0.01999
G1 X139.609 Y111.938 E0.01995
G1 X139.185 Y111.435 E0.02064
G1 X138.868 Y110.870 E0.02030
G1 X138.659 Y110.250 E0.02050
G1 X138.571 Y109.597 E0.02066
G1 X138.576 Y100.264 E0.29264
G1 X138.670 Y99.645 E0.01962
G1 X138.862 Y99.085 E0.01858
G1 X139.165 Y98.537 E0.01963
G1 X139.542 Y98.072 E0.01876
G1 X140.051 Y97.640 E0.02095
G1 X140.615 Y97.321 E0.02032
G1 X141.201 Y97.119 E0.01943
G1 X141.841 Y97.025 E0.02028
G1 X153.278 Y97.027 E0.35862
G1 X153.801 Y97.146 E0.01680
G1 X154.295 Y97.375 E0.01707
G1 X155.072 Y98.069 E0.03267
G1 X155.467 Y98.689 E0.02305
G1 X155.678 Y99.461 E0.02508
G1 X155.678 Y110.441 E0.34429
G1 X155.567 Y110.998 E0.01780
G1 X155.322 Y111.539 E0.01860
G1 X154.630 Y112.316 E0.03264
G1 X154.060 Y112.679 E0.02120
G1 X153.879 Y112.356 F6000.000
G1 F1200
G1 X153.210 Y112.546 E0.02181
G1 X141.906 Y112.543 E0.35443
G1 X141.337 Y112.467 E0.01798
G1 X140.800 Y112.290 E0.01775
G1 X140.301 Y112.016 E0.01783
G1 X139.863 Y111.658 E0.01776
G1 X139.486 Y111.207 E0.01841
G1 X139.206 Y110.703 E0.01807
G1 X139.023 Y110.149 E0.01831
G1 X138.948 Y109.585 E0.01784
G1 X138.951 Y100.305 E0.29098
G1 X139.032 Y99.751 E0.01756
G1 X139.213 Y99.224 E0.01747
G1 X139.485 Y98.736 E0.01751
G1 X139.822 Y98.325 E0.01664
G1 X140.279 Y97.940 E0.01875
G1 X140.783 Y97.660 E0.01809
G1 X141.305 Y97.482 E0.01727
G1 X141.880 Y97.400 E0.01822
G1 X153.218 Y97.400 E0.35548
G1 X153.661 Y97.497 E0.01424
G1 X154.110 Y97.705 E0.01549
G1 X154.800 Y98.331 E0.02922
G1 X155.112 Y98.819 E0.01817
G1 X155.301 Y99.488 E0.02178
G1 X155.301 Y110.422 E0.34283
G1 X155.202 Y110.899 E0.01530
G1 X154.993 Y111.354 E0.01568
G1 X154.368 Y112.044 E0.02920
G1 X153.929 Y112.324 E0.01631
G1 X153.746 Y112.003 F6000.000
G1 F1200
G1 X153.182 Y112.169 E0.01843
G1 X141.918 Y112.166 E0.35317
G1 X141.436 Y112.103 E0.01523
G1 X140.965 Y111.950 E0.01554
G1 X140.499 Y111.695 E0.01668
G1 X140.118 Y111.379 E0.01551
G1 X139.789 Y110.982 E0.01618
G1 X139.546 Y110.538 E0.01588
G1 X139.394 Y110.081 E0.01509
G1 X139.325 Y109.572 E0.01609
G1 X139.326 Y100.344 E0.28935
G1 X139.396 Y99.854 E0.01552
G1 X139.552 Y99.390 E0.01534
G1 X139.788 Y98.961 E0.01535
G1 X140.102 Y98.579 E0.01551
G1 X140.506 Y98.242 E0.01648
G1 X140.949 Y97.999 E0.01586
G1 X141.407 Y97.846 E0.01513
G1 X141.918 Y97.776 E0.01619
G1 X153.196 Y97.777 E0.35360
G1 X153.555 Y97.860 E0.01158
G1 X153.921 Y98.033 E0.01269
G1 X154.527 Y98.591 E0.02582
G1 X154.758 Y98.952 E0.01346
G1 X154.924 Y99.516 E0.01841
G1 X154.924 Y110.401 E0.34130
G1 X154.839 Y110.797 E0.01272
G1 X154.665 Y111.165 E0.01276
G1 X154.107 Y111.771 E0.02581
G1 X153.796 Y111.971 E0.01160
G1 F4800
G1 X153.182 Y112.169 E-0.26833
G1 X151.542 Y112.169 E-0.68167
G1 E-0.05000 F2100.00000
G1 Z0.800 F6000.000
G1 X154.337 Y110.977
G1 Z0.200
G1 E1.00000 F2100.00000
G1 F1200
G1 X153.849 Y111.495 E0.02233
G1 X153.608 Y111.651 E0.00899
G1 X153.152 Y111.792 E0.01496
G1 X141.931 Y111.789 E0.35184
G1 X141.505 Y111.732 E0.01348
G1 X141.101 Y111.599 E0.01333
G1 X140.699 Y111.375 E0.01445
G1 X140.374 Y111.103 E0.01327
G1 X140.093 Y110.758 E0.01395
G1 X139.886 Y110.374 E0.01367
G1 X139.758 Y109.981 E0.01297
G1 X139.702 Y109.560 E0.01332
G1 X139.702 Y100.381 E0.28781
G1 X139.759 Y99.956 E0.01343
G1 X139.903 Y99.528 E0.01419
G1 X140.108 Y99.161 E0.01316
G1 X140.380 Y98.833 E0.01337
G1 X140.705 Y98.563 E0.01324
G1 X141.088 Y98.349 E0.01374
G1 X141.478 Y98.217 E0.01291
G1 X141.932 Y98.153 E0.01437
G1 X153.174 Y98.154 E0.35249
G1 X153.412 Y98.209 E0.00767
G1 X153.732 Y98.361 E0.01110
G1 X154.251 Y98.849 E0.02234
G1 X154.406 Y99.090 E0.00898
G1 X154.547 Y99.545 E0.01494
G1 X154.547 Y110.381 E0.33976
G1 X154.488 Y110.656 E0.00882
G1 X154.363 Y110.922 E0.00923
G1 X154.138 Y110.516 F6000.000
G1 F1200
G1 X154.010 Y110.786 E0.00939
G1 X153.593 Y111.218 E0.01881
G1 X153.465 Y111.302 E0.00479
G1 X153.121 Y111.415 E0.01137
G1 X141.944 Y111.412 E0.35043
G1 X141.575 Y111.361 E0.01168
G1 X141.240 Y111.248 E0.01109
G1 X140.901 Y111.056 E0.01223
G1 X140.632 Y110.827 E0.01106
G1 X140.415 Y110.561 E0.01076
G1 X140.238 Y110.238 E0.01156
G1 X140.129 Y109.912 E0.01078
G1 X140.079 Y109.547 E0.01155
G1 X140.079 Y100.394 E0.28697
G1 X140.130 Y100.027 E0.01161
G1 X140.254 Y99.668 E0.01191
G1 X140.427 Y99.364 E0.01099
G1 X140.657 Y99.090 E0.01121
G1 X140.930 Y98.866 E0.01106
G1 X141.253 Y98.689 E0.01157
G1 X141.579 Y98.580 E0.01078
G1 X141.944 Y98.530 E0.01154
G1 X153.152 Y98.531 E0.35141
G1 X153.269 Y98.559 E0.00377
G1 X153.542 Y98.688 E0.00948
G1 X153.973 Y99.105 E0.01881
G1 X154.057 Y99.233 E0.00479
G1 X154.170 Y99.577 E0.01136
G1 X154.170 Y110.362 E0.33816
G1 X154.150 Y110.457 E0.00304
G1 X153.786 Y110.376 F6000.000
G1 F1200
G1 X153.683 Y110.595 E0.00757
G1 X153.340 Y110.938 E0.01523
G1 X153.086 Y111.038 E0.00857
G1 X141.956 Y111.035 E0.34895
G1 X141.678 Y110.998 E0.00879
G1 X141.380 Y110.897 E0.00989
G1 X141.106 Y110.739 E0.00990
G1 X140.893 Y110.554 E0.00884
G1 X140.721 Y110.340 E0.00863
G1 X140.578 Y110.076 E0.00941
G1 X140.493 Y109.813 E0.00867
G1 X140.456 Y109.535 E0.00879
G1 X140.456 Y100.406 E0.28621
G1 X140.493 Y100.129 E0.00876
G1 X140.592 Y99.835 E0.00973
G1 X140.728 Y99.592 E0.00874
G1 X140.933 Y99.347 E0.01002
G1 X141.151 Y99.172 E0.00878
G1 X141.415 Y99.029 E0.00941
G1 X141.678 Y98.944 E0.00867
G1 X141.956 Y98.907 E0.00879
G1 X153.100 Y98.904 E0.34939
G1 X153.350 Y99.014 E0.00857
G1 X153.693 Y99.358 E0.01523
G1 X153.793 Y99.612 E0.00856
G1 X153.793 Y110.317 E0.33565
G1 X153.387 Y110.358 F6000.000
G1 F1200
G1 X153.113 Y110.632 E0.01215
G1 X153.044 Y110.661 E0.00235
G1 X141.970 Y110.658 E0.34721
G1 X141.751 Y110.627 E0.00694
G1 X141.524 Y110.548 E0.00754
G1 X141.315 Y110.425 E0.00761
G1 X141.157 Y110.285 E0.00661
G1 X141.027 Y110.120 E0.00657
G1 X140.930 Y109.939 E0.00644
G1 X140.864 Y109.742 E0.00654
G1 X140.833 Y109.521 E0.00698
G1 X140.833 Y100.420 E0.28536
G1 X140.864 Y100.202 E0.00691
G1 X140.942 Y99.977 E0.00744
G1 X141.045 Y99.796 E0.00656
G1 X141.206 Y99.608 E0.00775
G1 X141.371 Y99.479 E0.00657
G1 X141.552 Y99.381 E0.00644
G1 X141.749 Y99.315 E0.00654
G1 X141.970 Y99.284 E0.00698
G1 X153.044 Y99.281 E0.34721
G1 X153.113 Y99.310 E0.00235
G1 X153.387 Y99.584 E0.01215
G1 X153.416 Y99.654 E0.00235
G1 X153.410 Y110.302 E0.33388
G1 X153.039 Y110.173 F6000.000
G1 F1200
G1 X152.928 Y110.283 E0.00490
G1 X141.985 Y110.281 E0.34313
G1 X141.824 Y110.257 E0.00508
G1 X141.695 Y110.212 E0.00429
G1 X141.546 Y110.126 E0.00541
G1 X141.438 Y110.033 E0.00445
G1 X141.280 Y109.797 E0.00892
G1 X141.234 Y109.667 E0.00434
G1 X141.210 Y109.506 E0.00508
G1 X141.208 Y101.004 E0.26660
G1 X141.210 Y100.436 E0.01780
G1 X141.234 Y100.275 E0.00509
G1 X141.348 Y100.022 E0.00873
G1 X141.459 Y99.888 E0.00544
G1 X141.694 Y99.731 E0.00887
G1 X141.824 Y99.685 E0.00434
G1 X141.985 Y99.661 E0.00508
G1 X152.928 Y99.659 E0.34313
G1 X153.039 Y99.769 E0.00490
