; generated by Slic3r Prusa Edition 1.41.0+win64 on 2018-10-23 at 18:20:37

; 

; external perimeters extrusion width = 0.45mm
; perimeters extrusion width = 0.45mm
; infill extrusion width = 0.45mm
; solid infill extrusion width = 0.45mm
; top infill extrusion width = 0.40mm
; support material extrusion width = 0.35mm
; first layer extrusion width = 0.42mm

M201 X9000 Y9000 Z500 E10000 ; sets maximum accelerations, mm/sec^2
M203 X500 Y500 Z12 E120 ; sets maximum feedrates, mm/sec
M204 P1500 R1500 T1500 ; sets acceleration (P, T) and retract acceleration (R), mm/sec^2
M205 X10.00 Y10.00 Z0.20 E2.50 ; sets the jerk limits, mm/sec
M205 S0 T0 ; sets the minimum extruding and travel feed rate, mm/sec
M107
M115 U3.3.1 ; tell printer latest fw version
M201 X1000 Y1000 Z1000 E9000 ; sets maximum accelerations, mm/sec^2
M203 X200 Y200 Z12 E120 ; sets maximum feedrates, mm/sec
M204 S1250 T1250 ; sets acceleration (S) and retract acceleration (T)
M205 X8 Y8 Z0.4 E1.5 ; sets the jerk limits, mm/sec
M205 S0 T0 ; sets the minimum extruding and travel feed rate, mm/sec
M83  ; extruder relative mode
M104 S235 ; set extruder temp
M140 S85 ; set bed temp
M190 S85 ; wait for bed temp
M109 S235 ; wait for extruder temp
G28 W ; home all without mesh bed level
G80 ; mesh bed leveling
G1 Y-3.0 F1000.0 ; go outside print area
G92 E0.0
G1 X60.0 E9.0  F1000.0 ; intro line
G1 X100.0 E12.5  F1000.0 ; intro line
G92 E0.0
M221 S95
M900 K45; Filament gcode
G21 ; set units to millimeters
G90 ; use absolute coordinates
M83 ; use relative distances for extrusion
;BEFORE_LAYER_CHANGE
G92 E0.0
;0.2


G1 E-1.00000 F2100.00000
G1 Z0.600 F6000.000
;AFTER_LAYER_CHANGE
;0.2
G1 X66.496 Y65.606
G1 Z0.200
G1 E1.00000 F2100.00000
M204 S1000
G1 F1200
G1 X67.187 Y65.314 E0.02351
G1 X67.917 Y65.213 E0.02312
G1 X83.096 Y65.213 E0.47592
G1 X180.050 Y71.971 E3.04731
G1 X180.929 Y72.158 E0.02816
G1 X181.809 Y72.449 E0.02907
G1 X182.652 Y72.835 E0.02907
G1 X183.422 Y73.297 E0.02816
G1 X184.690 Y74.350 E0.05168
G1 X185.285 Y75.023 E0.02816
G1 X185.827 Y75.790 E0.02946
G1 X186.414 Y76.914 E0.03974
G1 X186.692 Y77.854 E0.03076
G1 X186.673 Y82.670 E0.15100
G1 X186.288 Y83.763 E0.03632
G1 X185.662 Y84.860 E0.03961
G1 X184.881 Y85.847 E0.03948
G1 X183.998 Y86.674 E0.03792
G1 X183.153 Y87.274 E0.03251
G1 X182.053 Y87.848 E0.03889
G1 X180.907 Y88.246 E0.03805
G1 X179.665 Y88.478 E0.03960
G1 X83.253 Y95.251 E3.03040
G1 X67.876 Y95.255 E0.48214
G1 X67.195 Y95.158 E0.02157
G1 X66.557 Y94.898 E0.02157
G1 X66.069 Y94.554 E0.01872
G1 X63.338 Y92.077 E0.11561
G1 X61.560 Y89.206 E0.10588
G1 X61.255 Y88.397 E0.02712
G1 X61.194 Y87.823 E0.01808
G1 X61.194 Y72.436 E0.48246
G1 X61.291 Y71.751 E0.02170
G1 X61.551 Y71.109 E0.02170
G1 X61.882 Y70.637 E0.01808
G1 X65.907 Y66.069 E0.19088
G1 X66.449 Y65.643 E0.02163
G1 F4800
G1 X67.187 Y65.314 E-0.33575
G1 X67.917 Y65.213 E-0.30649
G1 X68.658 Y65.213 E-0.30775
G1 E-0.05000 F2100.00000
G1 Z0.800 F6000.000
G1 X185.397 Y80.195
G1 Z0.200
G1 E1.00000 F2100.00000
G1 F1200
G1 X185.615 Y80.403 E0.00946
G1 X186.169 Y81.215 E0.03082
G1 X186.357 Y81.770 E0.01838
G1 X186.384 Y82.399 E0.01974
G1 X186.298 Y82.782 E0.01231
G1 X185.932 Y83.632 E0.02901
G1 X185.542 Y84.350 E0.02562
G1 X185.129 Y84.959 E0.02306
G1 X184.634 Y85.558 E0.02436
G1 X184.140 Y86.054 E0.02197
G1 X183.721 Y86.413 E0.01729
G1 X183.278 Y86.742 E0.01730
G1 X182.703 Y87.103 E0.02129
G1 X181.963 Y87.476 E0.02600
G1 X181.352 Y87.716 E0.02056
G1 X180.819 Y87.879 E0.01749
G1 X180.280 Y88.003 E0.01733
G1 X179.576 Y88.107 E0.02232
G1 X178.832 Y88.149 E0.02338
G1 X172.741 Y88.150 E0.19097
G1 X172.146 Y88.126 E0.01868
G1 X171.549 Y88.057 E0.01884
G1 X170.989 Y87.950 E0.01789
G1 X170.424 Y87.799 E0.01832
G1 X169.846 Y87.596 E0.01922
G1 X169.302 Y87.358 E0.01860
G1 X168.483 Y86.901 E0.02941
G1 X167.972 Y86.546 E0.01952
G1 X167.491 Y86.152 E0.01947
G1 X166.910 Y85.582 E0.02554
G1 X166.492 Y85.089 E0.02026
G1 X166.001 Y84.384 E0.02695
G1 X165.649 Y83.753 E0.02263
G1 X165.333 Y83.035 E0.02461
G1 X165.106 Y82.346 E0.02273
G1 X164.914 Y81.481 E0.02777
G1 X164.823 Y80.652 E0.02615
G1 X164.818 Y79.855 E0.02499
G1 X164.882 Y79.134 E0.02272
G1 X165.039 Y78.305 E0.02646
G1 X165.244 Y77.610 E0.02271
G1 X165.557 Y76.835 E0.02622
G1 X165.932 Y76.129 E0.02504
G1 X166.357 Y75.487 E0.02416
G1 X166.855 Y74.876 E0.02468
G1 X167.359 Y74.366 E0.02250
G1 X167.977 Y73.848 E0.02528
G1 X168.756 Y73.331 E0.02932
G1 X169.448 Y72.972 E0.02445
G1 X170.067 Y72.718 E0.02097
G1 X170.987 Y72.449 E0.03005
G1 X171.755 Y72.313 E0.02446
G1 X172.504 Y72.252 E0.02357
G1 X178.825 Y72.249 E0.19820
G1 X179.380 Y72.272 E0.01740
G1 X179.926 Y72.334 E0.01724
G1 X180.514 Y72.443 E0.01874
G1 X181.141 Y72.613 E0.02039
G1 X181.945 Y72.913 E0.02691
G1 X182.471 Y73.166 E0.01828
G1 X182.976 Y73.457 E0.01827
G1 X183.495 Y73.810 E0.01968
G1 X183.987 Y74.207 E0.01982
G1 X184.579 Y74.780 E0.02584
G1 X185.008 Y75.280 E0.02064
G1 X185.478 Y75.945 E0.02555
G1 X185.831 Y76.563 E0.02232
G1 X186.354 Y77.810 E0.04237
G1 X186.394 Y78.209 E0.01257
G1 X186.359 Y78.625 E0.01311
G1 X186.205 Y79.114 E0.01606
G1 X185.660 Y79.943 E0.03109
G1 X185.440 Y80.154 E0.00957
G1 X184.668 Y80.200 F6000.000
G1 F1200
G1 X185.075 Y80.430 E0.01468
G1 X185.322 Y80.642 E0.01019
G1 X185.823 Y81.366 E0.02760
G1 X185.983 Y81.819 E0.01507
G1 X186.010 Y82.345 E0.01653
G1 X185.944 Y82.651 E0.00981
G1 X185.597 Y83.460 E0.02759
G1 X185.215 Y84.162 E0.02505
G1 X184.823 Y84.739 E0.02190
G1 X184.350 Y85.310 E0.02325
G1 X183.889 Y85.773 E0.02046
G1 X183.481 Y86.122 E0.01685
G1 X183.060 Y86.435 E0.01645
G1 X182.511 Y86.779 E0.02032
G1 X181.801 Y87.136 E0.02489
G1 X181.235 Y87.357 E0.01907
G1 X180.727 Y87.513 E0.01664
G1 X180.203 Y87.634 E0.01688
G1 X179.547 Y87.731 E0.02080
G1 X178.826 Y87.772 E0.02262
G1 X172.745 Y87.773 E0.19068
G1 X172.168 Y87.749 E0.01809
G1 X171.600 Y87.683 E0.01795
G1 X171.067 Y87.581 E0.01702
G1 X170.529 Y87.436 E0.01746
G1 X169.990 Y87.247 E0.01790
G1 X169.478 Y87.024 E0.01753
G1 X168.675 Y86.576 E0.02882
G1 X168.194 Y86.240 E0.01841
G1 X167.749 Y85.877 E0.01800
G1 X167.192 Y85.331 E0.02447
G1 X166.796 Y84.866 E0.01914
G1 X166.325 Y84.191 E0.02579
G1 X165.991 Y83.593 E0.02150
G1 X165.688 Y82.907 E0.02349
G1 X165.472 Y82.255 E0.02156
G1 X165.288 Y81.430 E0.02650
G1 X165.199 Y80.621 E0.02551
G1 X165.195 Y79.862 E0.02379
G1 X165.254 Y79.194 E0.02102
G1 X165.404 Y78.402 E0.02530
G1 X165.597 Y77.742 E0.02155
G1 X165.895 Y77.002 E0.02501
G1 X166.251 Y76.329 E0.02387
G1 X166.656 Y75.718 E0.02299
G1 X167.141 Y75.122 E0.02411
G1 X167.608 Y74.649 E0.02083
G1 X168.195 Y74.157 E0.02402
G1 X168.956 Y73.651 E0.02865
G1 X169.613 Y73.311 E0.02321
G1 X170.200 Y73.071 E0.01988
G1 X171.082 Y72.814 E0.02879
G1 X171.811 Y72.685 E0.02321
G1 X172.512 Y72.629 E0.02203
G1 X178.814 Y72.626 E0.19760
G1 X179.344 Y72.647 E0.01666
G1 X179.864 Y72.706 E0.01639
G1 X180.423 Y72.810 E0.01781
G1 X181.034 Y72.975 E0.01987
G1 X181.789 Y73.257 E0.02527
G1 X182.301 Y73.503 E0.01779
G1 X182.781 Y73.780 E0.01739
G1 X183.276 Y74.118 E0.01877
G1 X183.744 Y74.495 E0.01885
G1 X184.299 Y75.032 E0.02423
G1 X184.705 Y75.505 E0.01954
G1 X185.165 Y76.155 E0.02498
G1 X185.499 Y76.741 E0.02113
G1 X185.982 Y77.879 E0.03878
G1 X186.017 Y78.196 E0.00997
G1 X185.985 Y78.574 E0.01190
G1 X185.875 Y78.930 E0.01168
G1 X185.360 Y79.713 E0.02937
G1 X185.079 Y79.965 E0.01184
G1 X184.720 Y80.170 E0.01297
G1 F4800
G1 X185.075 Y80.430 E-0.18306
G1 X185.322 Y80.642 E-0.13513
G1 X185.823 Y81.366 E-0.36582
G1 X185.983 Y81.819 E-0.19971
G1 X185.991 Y81.978 E-0.06627
G1 E-0.05000 F2100.00000
G1 Z0.800 F6000.000
G1 X172.456 Y80.159
G1 Z0.200
G1 E1.00000 F2100.00000
G1 F1200
G1 X172.494 Y80.333 E0.00557
G1 X172.640 Y80.473 E0.00635
G1 X172.842 Y80.502 E0.00642
G1 X184.250 Y80.502 E0.35767
G1 X184.563 Y80.580 E0.01012
G1 X184.853 Y80.735 E0.01033
G1 X185.028 Y80.879 E0.00709
G1 X185.499 Y81.560 E0.02594
G1 X185.608 Y81.870 E0.01032
G1 X185.636 Y82.296 E0.01339
G1 X185.589 Y82.521 E0.00720
G1 X185.262 Y83.287 E0.02613
G1 X184.888 Y83.973 E0.02448
G1 X184.526 Y84.506 E0.02019
G1 X184.065 Y85.063 E0.02269
G1 X183.638 Y85.491 E0.01896
G1 X183.251 Y85.823 E0.01599
G1 X182.841 Y86.127 E0.01600
G1 X182.318 Y86.455 E0.01933
G1 X181.640 Y86.795 E0.02378
G1 X181.118 Y86.999 E0.01759
G1 X180.623 Y87.150 E0.01621
G1 X180.126 Y87.265 E0.01602
G1 X179.517 Y87.355 E0.01930
G1 X178.821 Y87.394 E0.02185
G1 X172.749 Y87.396 E0.19040
G1 X172.191 Y87.373 E0.01750
G1 X171.651 Y87.309 E0.01705
G1 X171.145 Y87.212 E0.01615
G1 X170.634 Y87.074 E0.01660
G1 X170.134 Y86.899 E0.01660
G1 X169.653 Y86.690 E0.01644
G1 X168.867 Y86.251 E0.02822
G1 X168.426 Y85.944 E0.01685
G1 X168.007 Y85.601 E0.01699
G1 X167.473 Y85.080 E0.02340
G1 X167.100 Y84.642 E0.01802
G1 X166.650 Y83.998 E0.02463
G1 X166.332 Y83.432 E0.02037
G1 X166.043 Y82.779 E0.02237
G1 X165.838 Y82.163 E0.02039
G1 X165.662 Y81.378 E0.02521
G1 X165.575 Y80.590 E0.02486
G1 X165.573 Y79.870 E0.02258
G1 X165.627 Y79.255 E0.01936
G1 X165.769 Y78.498 E0.02414
G1 X165.951 Y77.874 E0.02039
G1 X166.233 Y77.170 E0.02379
G1 X166.580 Y76.514 E0.02327
G1 X166.954 Y75.949 E0.02124
G1 X167.428 Y75.367 E0.02353
G1 X167.858 Y74.932 E0.01917
G1 X168.413 Y74.465 E0.02274
G1 X169.156 Y73.970 E0.02798
G1 X169.778 Y73.650 E0.02196
G1 X170.333 Y73.424 E0.01879
G1 X171.177 Y73.179 E0.02754
G1 X171.867 Y73.058 E0.02196
G1 X172.519 Y73.006 E0.02051
G1 X178.802 Y73.003 E0.19700
G1 X179.310 Y73.023 E0.01592
G1 X179.802 Y73.078 E0.01555
G1 X180.332 Y73.176 E0.01688
G1 X180.928 Y73.336 E0.01935
G1 X181.634 Y73.600 E0.02364
G1 X182.119 Y73.833 E0.01686
G1 X182.587 Y74.103 E0.01694
G1 X183.045 Y74.416 E0.01739
G1 X183.500 Y74.783 E0.01835
G1 X184.019 Y75.285 E0.02263
G1 X184.402 Y75.730 E0.01843
G1 X184.852 Y76.366 E0.02440
G1 X185.157 Y76.901 E0.01930
G1 X185.612 Y77.953 E0.03594
G1 X185.639 Y78.184 E0.00729
G1 X185.610 Y78.523 E0.01069
G1 X185.544 Y78.746 E0.00730
G1 X185.060 Y79.482 E0.02761
G1 X184.852 Y79.663 E0.00866
G1 X184.563 Y79.817 E0.01025
G1 X184.250 Y79.896 E0.01012
G1 X172.745 Y79.899 E0.36073
G1 X172.547 Y79.980 E0.00673
G1 X172.483 Y80.106 E0.00440
G1 X172.091 Y80.114 F6000.000
G1 F1200
G1 X172.087 Y80.236 E0.00382
G1 X172.133 Y80.448 E0.00679
G1 X172.243 Y80.631 E0.00670
G1 X172.363 Y80.743 E0.00516
G1 X172.552 Y80.841 E0.00667
G1 X172.816 Y80.879 E0.00836
G1 X184.227 Y80.879 E0.35779
G1 X184.406 Y80.924 E0.00579
G1 X184.657 Y81.058 E0.00892
G1 X184.763 Y81.148 E0.00437
G1 X185.173 Y81.751 E0.02286
G1 X185.235 Y81.925 E0.00580
G1 X185.260 Y82.254 E0.01032
G1 X185.234 Y82.393 E0.00446
G1 X184.918 Y83.131 E0.02515
G1 X184.562 Y83.784 E0.02335
G1 X184.230 Y84.272 E0.01849
G1 X183.780 Y84.816 E0.02214
G1 X183.387 Y85.210 E0.01745
G1 X183.010 Y85.533 E0.01555
G1 X182.622 Y85.820 E0.01513
G1 X182.141 Y86.122 E0.01781
G1 X181.479 Y86.454 E0.02322
G1 X181.000 Y86.640 E0.01612
G1 X180.532 Y86.785 E0.01535
G1 X180.048 Y86.896 E0.01557
G1 X179.487 Y86.979 E0.01779
G1 X178.805 Y87.018 E0.02141
G1 X172.752 Y87.019 E0.18978
G1 X172.227 Y86.998 E0.01647
G1 X171.715 Y86.938 E0.01616
G1 X171.223 Y86.843 E0.01571
G1 X170.739 Y86.712 E0.01573
G1 X170.266 Y86.546 E0.01574
G1 X169.813 Y86.348 E0.01550
G1 X169.075 Y85.937 E0.02647
G1 X168.648 Y85.639 E0.01633
G1 X168.252 Y85.315 E0.01605
G1 X167.743 Y84.816 E0.02233
G1 X167.393 Y84.405 E0.01693
G1 X166.964 Y83.790 E0.02349
G1 X166.673 Y83.271 E0.01866
G1 X166.392 Y82.635 E0.02181
G1 X166.204 Y82.070 E0.01867
G1 X166.035 Y81.326 E0.02392
G1 X165.951 Y80.559 E0.02420
G1 X165.950 Y79.878 E0.02136
G1 X165.999 Y79.315 E0.01770
G1 X166.138 Y78.577 E0.02356
G1 X166.304 Y78.005 E0.01867
G1 X166.571 Y77.337 E0.02256
G1 X166.909 Y76.698 E0.02266
G1 X167.252 Y76.179 E0.01950
G1 X167.715 Y75.612 E0.02295
G1 X168.107 Y75.215 E0.01751
G1 X168.647 Y74.760 E0.02214
G1 X169.337 Y74.301 E0.02599
G1 X169.943 Y73.989 E0.02136
G1 X170.466 Y73.777 E0.01770
G1 X171.252 Y73.548 E0.02566
G1 X171.923 Y73.431 E0.02136
G1 X172.527 Y73.383 E0.01899
G1 X178.791 Y73.379 E0.19641
G1 X179.275 Y73.399 E0.01517
G1 X179.754 Y73.452 E0.01512
G1 X180.256 Y73.545 E0.01600
G1 X180.804 Y73.693 E0.01782
G1 X181.478 Y73.944 E0.02256
G1 X181.949 Y74.170 E0.01636
G1 X182.392 Y74.426 E0.01604
G1 X182.826 Y74.723 E0.01649
G1 X183.244 Y75.060 E0.01687
G1 X183.739 Y75.538 E0.02157
G1 X184.100 Y75.956 E0.01731
G1 X184.529 Y76.561 E0.02326
G1 X184.816 Y77.062 E0.01810
G1 X185.242 Y78.032 E0.03322
G1 X185.262 Y78.174 E0.00450
G1 X185.237 Y78.469 E0.00928
G1 X185.194 Y78.605 E0.00448
G1 X184.762 Y79.250 E0.02432
G1 X184.657 Y79.340 E0.00435
G1 X184.406 Y79.474 E0.00891
G1 X184.227 Y79.519 E0.00579
G1 X172.705 Y79.522 E0.36127
G1 X172.478 Y79.585 E0.00737
G1 X172.302 Y79.703 E0.00665
G1 X172.218 Y79.798 E0.00399
G1 X172.119 Y79.985 E0.00663
G1 X172.104 Y80.056 E0.00226
G1 F4800
G1 X172.087 Y80.236 E-0.07529
G1 X172.133 Y80.448 E-0.09004
G1 X172.243 Y80.631 E-0.08879
G1 X172.363 Y80.743 E-0.06840
G1 X172.552 Y80.841 E-0.08845
G1 X172.816 Y80.879 E-0.11086
G1 X173.846 Y80.879 E-0.42818
G1 E-0.05000 F2100.00000
G1 Z0.800 F6000.000
G1 X172.435 Y81.206
G1 Z0.200
G1 E1.00000 F2100.00000
G1 F1200
G1 X172.789 Y81.256 E0.01121
G1 X184.204 Y81.256 E0.35790
G1 X184.491 Y81.409 E0.01020
G1 X184.846 Y81.941 E0.02005
G1 X184.884 Y82.223 E0.00892
G1 X184.575 Y82.974 E0.02547
G1 X184.235 Y83.595 E0.02221
G1 X183.934 Y84.038 E0.01680
G1 X183.495 Y84.569 E0.02158
G1 X183.135 Y84.929 E0.01596
G1 X182.780 Y85.234 E0.01468
G1 X182.404 Y85.513 E0.01469
G1 X181.964 Y85.789 E0.01629
G1 X181.333 Y86.106 E0.02212
G1 X180.882 Y86.282 E0.01519
G1 X180.428 Y86.422 E0.01491
G1 X179.971 Y86.527 E0.01469
G1 X179.457 Y86.603 E0.01629
G1 X178.789 Y86.641 E0.02097
G1 X172.756 Y86.642 E0.18917
G1 X172.263 Y86.622 E0.01545
G1 X171.779 Y86.566 E0.01528
G1 X171.315 Y86.477 E0.01484
G1 X170.857 Y86.354 E0.01485
G1 X170.397 Y86.192 E0.01529
G1 X169.972 Y86.006 E0.01456
G1 X169.283 Y85.622 E0.02474
G1 X168.881 Y85.342 E0.01535
G1 X168.497 Y85.028 E0.01555
G1 X168.013 Y84.553 E0.02126
G1 X167.686 Y84.168 E0.01584
G1 X167.279 Y83.583 E0.02236
G1 X167.014 Y83.111 E0.01697
G1 X166.740 Y82.491 E0.02125
G1 X166.569 Y81.977 E0.01697
G1 X166.409 Y81.274 E0.02263
G1 X166.328 Y80.548 E0.02290
G1 X166.327 Y79.885 E0.02077
G1 X166.374 Y79.358 E0.01660
G1 X166.506 Y78.656 E0.02241
G1 X166.658 Y78.136 E0.01696
G1 X166.917 Y77.486 E0.02195
G1 X167.238 Y76.883 E0.02142
G1 X167.550 Y76.410 E0.01777
G1 X168.001 Y75.857 E0.02237
G1 X168.356 Y75.497 E0.01585
G1 X168.882 Y75.055 E0.02153
G1 X169.519 Y74.631 E0.02400
G1 X170.108 Y74.328 E0.02076
G1 X170.599 Y74.130 E0.01660
G1 X171.327 Y73.918 E0.02378
G1 X171.979 Y73.804 E0.02076
G1 X172.535 Y73.760 E0.01747
G1 X178.781 Y73.756 E0.19584
G1 X179.240 Y73.774 E0.01441
G1 X179.705 Y73.826 E0.01468
G1 X180.179 Y73.914 E0.01512
G1 X180.681 Y74.049 E0.01630
G1 X181.323 Y74.288 E0.02148
G1 X181.767 Y74.500 E0.01540
G1 X182.197 Y74.749 E0.01557
G1 X182.606 Y75.030 E0.01558
G1 X182.989 Y75.338 E0.01539
G1 X183.471 Y75.804 E0.02104
G1 X183.798 Y76.182 E0.01568
G1 X184.207 Y76.757 E0.02213
G1 X184.476 Y77.225 E0.01692
G1 X184.876 Y78.121 E0.03078
G1 X184.847 Y78.455 E0.01050
G1 X184.491 Y78.988 E0.02011
G1 X184.204 Y79.141 E0.01020
G1 X172.695 Y79.145 E0.36085
G1 X172.569 Y79.161 E0.00398
G1 X172.310 Y79.245 E0.00854
G1 X172.052 Y79.416 E0.00971
G1 X171.905 Y79.583 E0.00697
G1 X171.762 Y79.854 E0.00962
G1 X171.715 Y80.067 E0.00682
G1 X171.708 Y80.270 E0.00639
G1 X171.777 Y80.588 E0.01020
G1 X171.946 Y80.870 E0.01029
G1 X172.143 Y81.054 E0.00844
G1 X172.382 Y81.178 E0.00844
G1 F4800
G1 X172.789 Y81.256 E-0.17233
G1 X174.660 Y81.256 E-0.77767
G1 E-0.05000 F2100.00000
G1 Z0.800 F6000.000
G1 X184.133 Y81.633
G1 Z0.200
G1 E1.00000 F2100.00000
G1 F1200
G1 X184.216 Y81.678 E0.00296
G1 X184.493 Y82.091 E0.01561
G1 X184.502 Y82.187 E0.00300
G1 X184.232 Y82.817 E0.02151
G1 X183.909 Y83.406 E0.02106
G1 X183.638 Y83.805 E0.01512
G1 X183.210 Y84.321 E0.02102
G1 X182.884 Y84.648 E0.01447
G1 X182.550 Y84.935 E0.01381
G1 X182.185 Y85.205 E0.01424
G1 X181.786 Y85.456 E0.01479
G1 X181.187 Y85.758 E0.02102
G1 X180.764 Y85.924 E0.01425
G1 X180.337 Y86.056 E0.01403
