; generated by Slic3r Prusa Edition 1.41.0+win64 on 2018-10-19 at 09:38:51

; 

; external perimeters extrusion width = 0.45mm
; perimeters extrusion width = 0.45mm
; infill extrusion width = 0.45mm
; solid infill extrusion width = 0.45mm
; top infill extrusion width = 0.40mm
; first layer extrusion width = 0.42mm

M201 X9000 Y9000 Z500 E10000 ; sets maximum accelerations, mm/sec^2
M203 X500 Y500 Z12 E120 ; sets maximum feedrates, mm/sec
M204 P1500 R1500 T1500 ; sets acceleration (P, T) and retract acceleration (R), mm/sec^2
M205 X10.00 Y10.00 Z0.20 E2.50 ; sets the jerk limits, mm/sec
M205 S0 T0 ; sets the minimum extruding and travel feed rate, mm/sec
M107
M115 U3.3.1 ; tell printer latest fw version
M201 X1000 Y1000 Z1000 E9000 ; sets maximum accelerations, mm/sec^2
M203 X200 Y200 Z12 E120 ; sets maximum feedrates, mm/sec
M204 S1250 T1250 ; sets acceleration (S) and retract acceleration (T)
M205 X8 Y8 Z0.4 E1.5 ; sets the jerk limits, mm/sec
M205 S0 T0 ; sets the minimum extruding and travel feed rate, mm/sec
M83  ; extruder relative mode
M104 S230 ; set extruder temp
M140 S85 ; set bed temp
M190 S85 ; wait for bed temp
M109 S230 ; wait for extruder temp
G28 W ; home all without mesh bed level
G80 ; mesh bed leveling
G1 Y-3.0 F1000.0 ; go outside print area
G92 E0.0
G1 X60.0 E9.0  F1000.0 ; intro line
G1 X100.0 E12.5  F1000.0 ; intro line
G92 E0.0
M221 S95
M900 K45; Filament gcode
G21 ; set units to millimeters
G90 ; use absolute coordinates
M83 ; use relative distances for extrusion
;BEFORE_LAYER_CHANGE
G92 E0.0
;0.2


G1 E-1.00000 F2100.00000
G1 Z0.600 F6000.000
;AFTER_LAYER_CHANGE
;0.2
G1 X59.161 Y35.849
G1 Z0.200
G1 E1.00000 F2100.00000
M204 S1000
G1 F1200
G1 X59.445 Y35.262 E0.02044
G1 X59.789 Y34.870 E0.01635
G1 X60.219 Y34.569 E0.01646
G1 X60.709 Y34.379 E0.01646
G1 X61.230 Y34.312 E0.01646
G1 X188.860 Y34.314 E4.00175
G1 X189.543 Y34.460 E0.02191
G1 X190.148 Y34.816 E0.02202
G1 X190.608 Y35.343 E0.02191
G1 X190.878 Y35.991 E0.02202
G1 X190.939 Y36.498 E0.01601
G1 X190.939 Y173.504 E4.29572
G1 X190.840 Y174.148 E0.02044
G1 X190.555 Y174.738 E0.02055
G1 X190.208 Y175.132 E0.01646
G1 X189.774 Y175.434 E0.01658
G1 X189.284 Y175.622 E0.01646
G1 X188.759 Y175.689 E0.01658
G1 X61.243 Y175.689 E3.99820
G1 X60.598 Y175.589 E0.02044
G1 X60.012 Y175.305 E0.02044
G1 X59.618 Y174.958 E0.01646
G1 X59.316 Y174.524 E0.01658
G1 X59.127 Y174.030 E0.01658
G1 X59.061 Y173.510 E0.01646
G1 X59.061 Y36.493 E4.29607
G1 X59.152 Y35.908 E0.01855
; PURGING FINISHED
G1 F4800
G1 X59.445 Y35.262 E-0.29482
G1 X59.789 Y34.870 E-0.21671
G1 X60.219 Y34.569 E-0.21821
G1 X60.709 Y34.379 E-0.21822
G1 X60.714 Y34.379 E-0.00204
G1 E-0.05000 F2100.00000
G1 Z0.800 F6000.000
G1 X113.058 Y41.364
G1 Z0.200
G1 E1.00000 F2100.00000
G1 F1200
G1 X116.298 Y43.414 E0.12019
G1 X118.864 Y45.121 E0.09664
G1 X121.657 Y47.069 E0.10676
G1 X124.272 Y48.989 E0.10173
G1 X126.842 Y50.968 E0.10171
G1 X129.366 Y53.005 E0.10171
G1 X131.843 Y55.101 E0.10171
G1 X134.270 Y57.253 E0.10171
G1 X136.648 Y59.460 E0.10173
G1 X139.087 Y61.836 E0.10676
G1 X141.246 Y64.036 E0.09664
G1 X143.466 Y66.402 E0.10173
G1 X145.735 Y68.941 E0.10676
G1 X147.738 Y71.284 E0.09664
G1 X149.788 Y73.798 E0.10171
G1 X151.780 Y76.358 E0.10171
G1 X153.713 Y78.963 E0.10171
G1 X155.585 Y81.612 E0.10171
G1 X157.395 Y84.304 E0.10171
G1 X159.144 Y87.037 E0.10171
G1 X161.134 Y90.313 E0.12019
G1 X159.073 Y93.543 E0.12015
G1 X157.267 Y96.236 E0.10167
G1 X155.401 Y98.888 E0.10167
G1 X153.475 Y101.496 E0.10167
G1 X151.491 Y104.061 E0.10167
G1 X149.449 Y106.579 E0.10167
G1 X147.350 Y109.051 E0.10167
G1 X145.197 Y111.475 E0.10167
G1 X142.989 Y113.849 E0.10167
G1 X140.727 Y116.173 E0.10167
G1 X138.414 Y118.445 E0.10167
G1 X136.050 Y120.665 E0.10167
G1 X133.636 Y122.830 E0.10167
G1 X131.174 Y124.940 E0.10168
G1 X128.537 Y127.093 E0.10671
G1 X126.110 Y128.989 E0.09660
G1 X123.510 Y130.927 E0.10167
G1 X120.867 Y132.806 E0.10168
G1 X118.047 Y134.712 E0.10671
G1 X115.457 Y136.381 E0.09660
G1 X112.191 Y138.384 E0.12015
G1 X108.951 Y136.335 E0.12019
G1 X106.250 Y134.538 E0.10171
G1 X103.592 Y132.679 E0.10171
G1 X100.976 Y130.760 E0.10171
G1 X98.406 Y128.781 E0.10171
G1 X95.882 Y126.743 E0.10171
G1 X93.406 Y124.648 E0.10171
G1 X90.978 Y122.496 E0.10171
G1 X88.601 Y120.289 E0.10171
G1 X86.275 Y118.027 E0.10171
G1 X84.002 Y115.713 E0.10171
G1 X81.783 Y113.347 E0.10173
G1 X79.514 Y110.808 E0.10676
G1 X77.511 Y108.465 E0.09664
G1 X75.460 Y105.951 E0.10171
G1 X73.468 Y103.391 E0.10171
G1 X71.535 Y100.785 E0.10173
G1 X69.573 Y98.002 E0.10676
G1 X67.853 Y95.445 E0.09664
G1 X66.105 Y92.712 E0.10171
G1 X64.114 Y89.436 E0.12019
G1 X66.176 Y86.206 E0.12015
G1 X67.981 Y83.513 E0.10167
G1 X69.848 Y80.861 E0.10167
G1 X71.774 Y78.252 E0.10167
G1 X73.758 Y75.688 E0.10167
G1 X75.800 Y73.169 E0.10168
G1 X78.005 Y70.577 E0.10671
G1 X80.052 Y68.274 E0.09660
G1 X82.260 Y65.899 E0.10167
G1 X84.521 Y63.575 E0.10167
G1 X86.835 Y61.303 E0.10167
G1 X89.199 Y59.084 E0.10167
G1 X91.612 Y56.919 E0.10167
G1 X94.075 Y54.809 E0.10167
G1 X96.584 Y52.756 E0.10167
G1 X99.139 Y50.759 E0.10167
G1 X101.738 Y48.821 E0.10167
G1 X104.381 Y46.943 E0.10167
G1 X107.066 Y45.124 E0.10168
G1 X109.929 Y43.283 E0.10671
G1 X113.007 Y41.396 E0.11321
G1 X113.055 Y41.808 F6000.000
G1 F1200
G1 X116.092 Y43.730 E0.11269
G1 X118.651 Y45.433 E0.09638
G1 X121.437 Y47.375 E0.10649
G1 X124.045 Y49.290 E0.10145
G1 X126.609 Y51.264 E0.10144
G1 X129.126 Y53.296 E0.10144
G1 X131.596 Y55.386 E0.10144
G1 X134.017 Y57.532 E0.10144
G1 X136.388 Y59.733 E0.10145
G1 X138.820 Y62.104 E0.10649
G1 X140.974 Y64.297 E0.09638
G1 X143.188 Y66.657 E0.10145
G1 X145.451 Y69.189 E0.10649
G1 X147.448 Y71.526 E0.09638
G1 X149.493 Y74.033 E0.10144
G1 X151.480 Y76.586 E0.10144
G1 X153.407 Y79.184 E0.10144
G1 X155.274 Y81.826 E0.10144
G1 X157.080 Y84.511 E0.10144
G1 X158.824 Y87.236 E0.10144
G1 X160.690 Y90.308 E0.11269
G1 X158.757 Y93.336 E0.11265
G1 X156.956 Y96.022 E0.10140
G1 X155.095 Y98.667 E0.10140
G1 X153.174 Y101.269 E0.10140
G1 X151.195 Y103.826 E0.10140
G1 X149.158 Y106.339 E0.10140
G1 X147.066 Y108.804 E0.10140
G1 X144.918 Y111.221 E0.10140
G1 X142.715 Y113.590 E0.10140
G1 X140.460 Y115.907 E0.10140
G1 X138.153 Y118.173 E0.10140
G1 X135.795 Y120.387 E0.10140
G1 X133.387 Y122.546 E0.10140
G1 X130.932 Y124.651 E0.10141
G1 X128.302 Y126.798 E0.10645
G1 X125.881 Y128.690 E0.09634
G1 X123.288 Y130.622 E0.10140
G1 X120.652 Y132.496 E0.10141
G1 X117.839 Y134.397 E0.10645
G1 X115.257 Y136.062 E0.09634
G1 X112.194 Y137.940 E0.11265
G1 X109.156 Y136.019 E0.11269
G1 X106.463 Y134.227 E0.10144
G1 X103.811 Y132.373 E0.10144
G1 X101.203 Y130.459 E0.10144
G1 X98.640 Y128.485 E0.10144
G1 X96.122 Y126.453 E0.10144
G1 X93.653 Y124.363 E0.10144
G1 X91.232 Y122.217 E0.10144
G1 X88.861 Y120.015 E0.10144
G1 X86.541 Y117.760 E0.10144
G1 X84.274 Y115.452 E0.10144
G1 X82.061 Y113.092 E0.10145
G1 X79.798 Y110.559 E0.10649
G1 X77.800 Y108.223 E0.09638
G1 X75.755 Y105.716 E0.10144
G1 X73.769 Y103.163 E0.10144
G1 X71.841 Y100.564 E0.10145
G1 X69.884 Y97.788 E0.10649
G1 X68.168 Y95.238 E0.09638
G1 X66.425 Y92.512 E0.10144
G1 X64.558 Y89.441 E0.11269
G1 X66.491 Y86.412 E0.11265
G1 X68.292 Y83.726 E0.10140
G1 X70.154 Y81.082 E0.10140
G1 X72.074 Y78.480 E0.10140
G1 X74.053 Y75.922 E0.10140
G1 X76.090 Y73.410 E0.10141
G1 X78.290 Y70.824 E0.10645
G1 X80.331 Y68.527 E0.09634
G1 X82.533 Y66.159 E0.10140
G1 X84.789 Y63.841 E0.10140
G1 X87.096 Y61.575 E0.10140
G1 X89.454 Y59.362 E0.10140
G1 X91.861 Y57.203 E0.10140
G1 X94.317 Y55.098 E0.10140
G1 X96.819 Y53.050 E0.10140
G1 X99.368 Y51.059 E0.10140
G1 X101.960 Y49.126 E0.10140
G1 X104.596 Y47.253 E0.10140
G1 X107.274 Y45.439 E0.10141
G1 X110.129 Y43.602 E0.10645
G1 X113.004 Y41.840 E0.10571
G1 X113.052 Y42.253 F6000.000
G1 F1200
G1 X115.887 Y44.046 E0.10519
G1 X118.439 Y45.744 E0.09611
G1 X121.218 Y47.682 E0.10622
G1 X123.819 Y49.591 E0.10117
G1 X126.375 Y51.560 E0.10117
G1 X128.886 Y53.587 E0.10117
G1 X131.349 Y55.671 E0.10117
G1 X133.763 Y57.811 E0.10117
G1 X136.128 Y60.007 E0.10117
G1 X138.554 Y62.371 E0.10622
G1 X140.702 Y64.558 E0.09611
G1 X142.910 Y66.911 E0.10117
G1 X145.167 Y69.437 E0.10622
G1 X147.159 Y71.767 E0.09611
G1 X149.198 Y74.268 E0.10117
G1 X151.180 Y76.814 E0.10117
G1 X153.102 Y79.405 E0.10117
G1 X154.964 Y82.041 E0.10117
G1 X156.765 Y84.718 E0.10117
G1 X158.504 Y87.436 E0.10117
G1 X160.246 Y90.303 E0.10519
G1 X158.442 Y93.130 E0.10516
G1 X156.645 Y95.809 E0.10113
G1 X154.789 Y98.446 E0.10113
G1 X152.873 Y101.041 E0.10113
G1 X150.899 Y103.592 E0.10113
G1 X148.868 Y106.098 E0.10113
G1 X146.781 Y108.557 E0.10113
G1 X144.639 Y110.968 E0.10113
G1 X142.442 Y113.330 E0.10113
G1 X140.193 Y115.641 E0.10113
G1 X137.892 Y117.901 E0.10113
G1 X135.540 Y120.109 E0.10113
G1 X133.139 Y122.263 E0.10113
G1 X130.690 Y124.361 E0.10113
G1 X128.067 Y126.503 E0.10618
G1 X125.652 Y128.390 E0.09608
G1 X123.066 Y130.318 E0.10113
G1 X120.437 Y132.186 E0.10113
G1 X117.631 Y134.082 E0.10618
G1 X115.056 Y135.743 E0.09608
G1 X112.197 Y137.496 E0.10516
G1 X109.361 Y135.702 E0.10519
G1 X106.675 Y133.915 E0.10117
G1 X104.031 Y132.066 E0.10117
G1 X101.430 Y130.157 E0.10117
G1 X98.873 Y128.189 E0.10117
G1 X96.363 Y126.162 E0.10117
G1 X93.900 Y124.078 E0.10117
G1 X91.485 Y121.937 E0.10117
G1 X89.121 Y119.742 E0.10117
G1 X86.807 Y117.493 E0.10117
G1 X84.546 Y115.191 E0.10117
G1 X82.339 Y112.837 E0.10117
G1 X80.082 Y110.311 E0.10622
G1 X78.090 Y107.981 E0.09611
G1 X76.050 Y105.481 E0.10117
G1 X74.069 Y102.935 E0.10117
G1 X72.147 Y100.343 E0.10117
G1 X70.195 Y97.574 E0.10622
G1 X68.484 Y95.031 E0.09611
G1 X66.745 Y92.313 E0.10117
G1 X65.003 Y89.446 E0.10519
G1 X66.807 Y86.619 E0.10516
G1 X68.603 Y83.940 E0.10113
G1 X70.460 Y81.302 E0.10113
G1 X72.375 Y78.707 E0.10113
G1 X74.349 Y76.156 E0.10113
G1 X76.380 Y73.651 E0.10113
G1 X78.575 Y71.071 E0.10618
G1 X80.610 Y68.781 E0.09608
G1 X82.806 Y66.419 E0.10113
G1 X85.056 Y64.107 E0.10113
G1 X87.357 Y61.847 E0.10113
G1 X89.709 Y59.640 E0.10113
G1 X92.110 Y57.486 E0.10113
G1 X94.559 Y55.387 E0.10113
G1 X97.055 Y53.345 E0.10113
G1 X99.596 Y51.359 E0.10113
G1 X102.182 Y49.431 E0.10113
G1 X104.811 Y47.562 E0.10113
G1 X107.482 Y45.754 E0.10113
G1 X110.330 Y43.922 E0.10618
G1 X113.001 Y42.284 E0.09822
G1 X113.313 Y41.950 F6000.000
G1 F4800
G1 X114.951 Y43.475 E-0.95000
G1 E-0.05000 F2100.00000
G1 Z0.800 F6000.000
G1 X81.333 Y52.951
G1 Z0.200
G1 E1.00000 F2100.00000
G1 F1200
G1 X81.471 Y53.467 E0.01677
G1 X81.518 Y54.000 E0.01677
G1 X81.471 Y54.533 E0.01677
G1 X81.333 Y55.049 E0.01677
G1 X81.116 Y55.514 E0.01607
G1 X80.803 Y55.969 E0.01733
G1 X80.422 Y56.350 E0.01689
G1 X79.984 Y56.657 E0.01677
G1 X79.499 Y56.883 E0.01677
G1 X78.983 Y57.021 E0.01677
G1 X78.450 Y57.068 E0.01677
G1 X77.917 Y57.021 E0.01677
G1 X77.401 Y56.883 E0.01677
G1 X76.936 Y56.666 E0.01607
G1 X76.481 Y56.353 E0.01733
G1 X76.100 Y55.972 E0.01689
G1 X75.793 Y55.534 E0.01677
G1 X75.567 Y55.049 E0.01677
G1 X75.429 Y54.533 E0.01677
G1 X75.382 Y54.000 E0.01677
G1 X75.429 Y53.467 E0.01677
G1 X75.567 Y52.951 E0.01677
G1 X75.793 Y52.466 E0.01677
G1 X76.100 Y52.028 E0.01677
G1 X76.478 Y51.650 E0.01677
G1 X76.916 Y51.343 E0.01677
G1 X77.401 Y51.117 E0.01677
G1 X77.917 Y50.979 E0.01677
G1 X78.428 Y50.934 E0.01607
G1 X78.979 Y50.978 E0.01733
G1 X79.499 Y51.117 E0.01689
G1 X79.984 Y51.343 E0.01677
G1 X80.422 Y51.650 E0.01677
G1 X80.800 Y52.028 E0.01677
G1 X81.107 Y52.466 E0.01677
G1 X81.307 Y52.896 E0.01489
G1 X80.966 Y53.056 F6000.000
G1 F1200
G1 X81.098 Y53.533 E0.01553
G1 X81.139 Y54.000 E0.01470
G1 X81.098 Y54.467 E0.01470
G1 X80.977 Y54.920 E0.01470
G1 X80.788 Y55.326 E0.01405
G1 X80.512 Y55.727 E0.01526
G1 X80.179 Y56.060 E0.01478
G1 X79.795 Y56.329 E0.01470
G1 X79.370 Y56.527 E0.01470
G1 X78.917 Y56.648 E0.01470
G1 X78.450 Y56.689 E0.01470
G1 X77.983 Y56.648 E0.01470
G1 X77.530 Y56.527 E0.01470
G1 X77.124 Y56.338 E0.01405
G1 X76.723 Y56.062 E0.01526
G1 X76.390 Y55.729 E0.01478
G1 X76.121 Y55.345 E0.01470
G1 X75.923 Y54.920 E0.01470
G1 X75.802 Y54.467 E0.01470
G1 X75.761 Y54.000 E0.01470
G1 X75.802 Y53.533 E0.01470
G1 X75.923 Y53.080 E0.01470
G1 X76.121 Y52.655 E0.01470
G1 X76.390 Y52.271 E0.01470
G1 X76.721 Y51.940 E0.01470
G1 X77.105 Y51.671 E0.01470
G1 X77.530 Y51.473 E0.01470
G1 X77.983 Y51.352 E0.01470
G1 X78.429 Y51.312 E0.01405
G1 X78.915 Y51.351 E0.01526
G1 X79.370 Y51.473 E0.01477
G1 X79.795 Y51.671 E0.01470
G1 X80.179 Y51.940 E0.01470
G1 X80.510 Y52.271 E0.01470
G1 X80.779 Y52.655 E0.01470
G1 X80.940 Y53.001 E0.01197
G1 X80.599 Y53.161 F6000.000
G1 F1200
G1 X80.726 Y53.599 E0.01430
G1 X80.761 Y54.000 E0.01263
G1 X80.726 Y54.401 E0.01263
G1 X80.621 Y54.790 E0.01263
G1 X80.459 Y55.138 E0.01203
G1 X80.221 Y55.485 E0.01319
G1 X79.935 Y55.770 E0.01266
G1 X79.605 Y56.001 E0.01263
G1 X79.240 Y56.171 E0.01263
G1 X78.851 Y56.276 E0.01263
G1 X78.450 Y56.311 E0.01263
G1 X78.049 Y56.276 E0.01263
G1 X77.660 Y56.171 E0.01263
G1 X77.312 Y56.009 E0.01203
G1 X76.965 Y55.771 E0.01320
G1 X76.680 Y55.485 E0.01266
G1 X76.449 Y55.155 E0.01263
G1 X76.279 Y54.790 E0.01263
G1 X76.174 Y54.401 E0.01263
G1 X76.139 Y54.000 E0.01263
G1 X76.174 Y53.599 E0.01263
G1 X76.279 Y53.210 E0.01263
G1 X76.449 Y52.845 E0.01263
G1 X76.680 Y52.515 E0.01263
G1 X76.965 Y52.230 E0.01263
G1 X77.295 Y51.999 E0.01263
G1 X77.660 Y51.829 E0.01263
G1 X78.049 Y51.724 E0.01263
G1 X78.431 Y51.691 E0.01203
G1 X78.850 Y51.724 E0.01320
G1 X79.240 Y51.829 E0.01266
G1 X79.605 Y51.999 E0.01263
G1 X79.935 Y52.230 E0.01263
G1 X80.220 Y52.515 E0.01263
G1 X80.451 Y52.845 E0.01263
G1 X80.573 Y53.106 E0.00905
G1 X80.994 Y53.224 F6000.000
G1 F4800
G1 X80.726 Y53.599 E-0.21424
G1 X80.761 Y54.000 E-0.16741
G1 X80.726 Y54.401 E-0.16741
G1 X80.621 Y54.790 E-0.16741
G1 X80.459 Y55.138 E-0.15944
G1 X80.358 Y55.285 E-0.07408
G1 E-0.05000 F2100.00000
G1 Z0.800 F6000.000
G1 X78.428 Y120.934
G1 Z0.200
G1 E1.00000 F2100.00000
G1 F1200
G1 X78.979 Y120.978 E0.01733
G1 X79.499 Y121.117 E0.01689
G1 X79.984 Y121.343 E0.01677
G1 X80.422 Y121.650 E0.01677
G1 X80.800 Y122.028 E0.01677
G1 X81.107 Y122.466 E0.01677
G1 X81.333 Y122.951 E0.01677
G1 X81.471 Y123.467 E0.01677
G1 X81.518 Y124.000 E0.01677
G1 X81.471 Y124.533 E0.01677
G1 X81.333 Y125.049 E0.01677
G1 X81.107 Y125.534 E0.01677
G1 X80.800 Y125.972 E0.01677
G1 X80.422 Y126.350 E0.01677
G1 X80.002 Y126.644 E0.01607
G1 X79.503 Y126.882 E0.01733
G1 X78.983 Y127.021 E0.01689
G1 X78.450 Y127.068 E0.01677
G1 X77.917 Y127.021 E0.01677
G1 X77.401 Y126.883 E0.01677
G1 X76.916 Y126.657 E0.01677
G1 X76.478 Y126.350 E0.01677
G1 X76.116 Y125.988 E0.01607
G1 X75.795 Y125.538 E0.01733
G1 X75.567 Y125.049 E0.01689
G1 X75.429 Y124.533 E0.01677
G1 X75.382 Y124.000 E0.01677
G1 X75.429 Y123.467 E0.01677
G1 X75.567 Y122.951 E0.01677
G1 X75.793 Y122.466 E0.01677
G1 X76.100 Y122.028 E0.01677
G1 X76.478 Y121.650 E0.01677
G1 X76.916 Y121.343 E0.01677
G1 X77.401 Y121.117 E0.01677
G1 X77.917 Y120.979 E0.01677
G1 X78.368 Y120.939 E0.01419
G1 X78.401 Y121.315 F6000.000
G1 F1200
G1 X78.915 Y121.351 E0.01615
G1 X79.370 Y121.473 E0.01477
G1 X79.795 Y121.671 E0.01470
G1 X80.179 Y121.940 E0.01470
G1 X80.510 Y122.271 E0.01470
G1 X80.779 Y122.655 E0.01470
G1 X80.977 Y123.080 E0.01470
G1 X81.098 Y123.533 E0.01470
G1 X81.139 Y124.000 E0.01470
G1 X81.098 Y124.467 E0.01470
G1 X80.977 Y124.920 E0.01470
G1 X80.779 Y125.345 E0.01470
G1 X80.510 Y125.729 E0.01470
G1 X80.179 Y126.060 E0.01470
G1 X79.812 Y126.317 E0.01405
G1 X79.372 Y126.526 E0.01526
G1 X78.917 Y126.648 E0.01478
G1 X78.450 Y126.689 E0.01470
G1 X77.983 Y126.648 E0.01470
G1 X77.530 Y126.527 E0.01470
G1 X77.105 Y126.329 E0.01470
G1 X76.721 Y126.060 E0.01470
G1 X76.405 Y125.743 E0.01405
G1 X76.122 Y125.347 E0.01526
G1 X75.923 Y124.920 E0.01477
G1 X75.802 Y124.467 E0.01470
G1 X75.761 Y124.000 E0.01470
G1 X75.802 Y123.533 E0.01470
G1 X75.923 Y123.080 E0.01470
G1 X76.121 Y122.655 E0.01470
G1 X76.390 Y122.271 E0.01470
G1 X76.721 Y121.940 E0.01470
G1 X77.105 Y121.671 E0.01470
G1 X77.530 Y121.473 E0.01470
G1 X77.983 Y121.352 E0.01470
G1 X78.341 Y121.320 E0.01127
G1 X78.374 Y121.696 F6000.000
G1 F1200
G1 X78.850 Y121.724 E0.01496
G1 X79.240 Y121.829 E0.01266
G1 X79.605 Y121.999 E0.01263
